(Exported by FreeCAD)
(Post Processor: linuxcnc_post)
(Output Time:2019-03-24 13:55:20.942000)
(begin preamble)
G17 G54 G40 G49 G80 G90
G21
(begin operation: T2: 1/8 inch 2 flute endmill)
(machine: not set, mm/min)
(T2: 1/8 inch 2 flute endmill)
M6 T2
M3 S3000
(finish operation: T2: 1/8 inch 2 flute endmill)
(begin operation: TagDressup)
(machine: not set, mm/min)
G0 Z6.270
G0 X21.121 Y11.121 Z6.270
G0 X21.121 Y11.121 Z4.270
G1 X21.121 Y11.121 Z0.270 F50.000
G2 X21.585 Y10.000 Z0.270 I-1.121 J-1.121 F50.000
G1 X21.585 Y-10.000 Z0.270 F50.000
G2 X20.000 Y-11.585 Z0.270 I-1.585 J0.000 F50.000
G1 X12.309 Y-11.585 Z0.270 F50.000
G1 X11.939 Y-11.585 Z0.640 F50.000
G1 X8.061 Y-11.585 Z0.640 F50.000
G1 X7.691 Y-11.585 Z0.270 F50.000
G1 X-7.691 Y-11.585 Z0.270 F50.000
G1 X-8.061 Y-11.585 Z0.640 F50.000
G1 X-11.939 Y-11.585 Z0.640 F50.000
G1 X-12.309 Y-11.585 Z0.270 F50.000
G1 X-20.000 Y-11.585 Z0.270 F50.000
G2 X-21.585 Y-10.000 Z0.270 I0.000 J1.585 F50.000
G1 X-21.585 Y10.000 Z0.270 F50.000
G2 X-20.000 Y11.585 Z0.270 I1.585 J-0.000 F50.000
G1 X-12.309 Y11.585 Z0.270 F50.000
G1 X-11.939 Y11.585 Z0.640 F50.000
G1 X-8.061 Y11.585 Z0.640 F50.000
G1 X-7.691 Y11.585 Z0.270 F50.000
G1 X7.691 Y11.585 Z0.270 F50.000
G1 X8.061 Y11.585 Z0.640 F50.000
G1 X11.939 Y11.585 Z0.640 F50.000
G1 X12.309 Y11.585 Z0.270 F50.000
G1 X20.000 Y11.585 Z0.270 F50.000
G2 X21.121 Y11.121 Z0.270 I-0.000 J-1.585 F50.000
G1 X21.121 Y11.121 Z0.000 F50.000
G2 X21.585 Y10.000 Z0.000 I-1.121 J-1.121 F50.000
G1 X21.585 Y-10.000 Z0.000 F50.000
G2 X20.000 Y-11.585 Z0.000 I-1.585 J0.000 F50.000
G1 X12.579 Y-11.585 Z0.000 F50.000
G1 X11.939 Y-11.585 Z0.640 F50.000
G1 X8.061 Y-11.585 Z0.640 F50.000
G1 X7.421 Y-11.585 Z0.000 F50.000
G1 X-7.421 Y-11.585 Z0.000 F50.000
G1 X-8.061 Y-11.585 Z0.640 F50.000
G1 X-11.939 Y-11.585 Z0.640 F50.000
G1 X-12.579 Y-11.585 Z0.000 F50.000
G1 X-20.000 Y-11.585 Z0.000 F50.000
G2 X-21.585 Y-10.000 Z0.000 I0.000 J1.585 F50.000
G1 X-21.585 Y10.000 Z0.000 F50.000
G2 X-20.000 Y11.585 Z0.000 I1.585 J-0.000 F50.000
G1 X-12.579 Y11.585 Z0.000 F50.000
G1 X-11.939 Y11.585 Z0.640 F50.000
G1 X-8.061 Y11.585 Z0.640 F50.000
G1 X-7.421 Y11.585 Z0.000 F50.000
G1 X7.421 Y11.585 Z0.000 F50.000
G1 X8.061 Y11.585 Z0.640 F50.000
G1 X11.939 Y11.585 Z0.640 F50.000
G1 X12.579 Y11.585 Z0.000 F50.000
G1 X20.000 Y11.585 Z0.000 F50.000
G2 X21.121 Y11.121 Z0.000 I-0.000 J-1.585 F50.000
G0 X21.121 Y11.121 Z6.270
(finish operation: TagDressup)
(begin operation: T2: 1/8 inch 2 flute endmill)
(machine: not set, mm/min)
(T2: 1/8 inch 2 flute endmill)
M6 T2
M3 S3000
(finish operation: T2: 1/8 inch 2 flute endmill)
(begin operation: TagDressup001)
(machine: not set, mm/min)
G0 Z6.270
G0 X4.435 Y5.060 Z6.270
G0 X4.435 Y5.060 Z4.270
G1 X4.435 Y5.060 Z0.270 F50.000
G1 X4.435 Y3.249 Z0.270 F50.000
G1 X4.435 Y2.879 Z0.640 F50.000
G1 X4.435 Y0.111 Z0.640 F50.000
G1 X4.435 Y-0.259 Z0.270 F50.000
G1 X4.435 Y-2.070 Z0.270 F50.000
G1 X-4.435 Y-2.070 Z0.270 F50.000
G1 X-4.435 Y-0.259 Z0.270 F50.000
G1 X-4.435 Y0.111 Z0.640 F50.000
G1 X-4.435 Y2.879 Z0.640 F50.000
G1 X-4.435 Y3.249 Z0.270 F50.000
G1 X-4.435 Y5.060 Z0.270 F50.000
G1 X4.435 Y5.060 Z0.270 F50.000
G1 X4.435 Y5.060 Z0.000 F50.000
G1 X4.435 Y3.519 Z0.000 F50.000
G1 X4.435 Y2.879 Z0.640 F50.000
G1 X4.435 Y0.111 Z0.640 F50.000
G1 X4.435 Y-0.529 Z0.000 F50.000
G1 X4.435 Y-2.070 Z0.000 F50.000
G1 X-4.435 Y-2.070 Z0.000 F50.000
G1 X-4.435 Y-0.529 Z0.000 F50.000
G1 X-4.435 Y0.111 Z0.640 F50.000
G1 X-4.435 Y2.879 Z0.640 F50.000
G1 X-4.435 Y3.519 Z0.000 F50.000
G1 X-4.435 Y5.060 Z0.000 F50.000
G1 X4.435 Y5.060 Z0.000 F50.000
G0 X4.435 Y5.060 Z6.270
(finish operation: TagDressup001)
(begin operation: T2: 1/8 inch 2 flute endmill)
(machine: not set, mm/min)
(T2: 1/8 inch 2 flute endmill)
M6 T2
M3 S3000
(finish operation: T2: 1/8 inch 2 flute endmill)
(begin operation: Profile_Faces001)
(machine: not set, mm/min)
(Profile_Faces001)
(Compensated Tool Path. Diameter: 3.17)
G0 Z6.270
G0 X15.255 Y0.005
G0 Z4.270
G1 X15.257 Y0.002 Z0.270 F50.000
G2 X15.253 Y-0.007 Z0.270 I-0.006 J-0.002 F50.000
G2 X15.244 Y-0.003 Z0.270 I-0.002 J0.006 F50.000
G2 X15.257 Y0.002 Z0.270 I0.006 J0.002 F50.000
G0 X15.257 Y0.002 Z6.270
G0 X-15.244 Y0.003 Z6.270
G0 X-15.244 Y0.003 Z4.540
G1 X-15.244 Y0.003 Z0.270 F50.000
G2 X-15.257 Y-0.002 Z0.270 I-0.006 J-0.002 F50.000
G2 X-15.253 Y0.007 Z0.270 I0.006 J0.002 F50.000
G2 X-15.244 Y0.003 Z0.270 I0.002 J-0.006 F50.000
G1 X-15.244 Y0.003 Z0.000 F50.000
G2 X-15.257 Y-0.002 Z0.000 I-0.006 J-0.002 F50.000
G2 X-15.253 Y0.007 Z0.000 I0.006 J0.002 F50.000
G2 X-15.244 Y0.003 Z0.000 I0.002 J-0.006 F50.000
G0 X-15.244 Y0.003 Z6.270
G0 X15.244 Y-0.003 Z6.270
G0 X15.244 Y-0.003 Z4.270
G1 X15.244 Y-0.003 Z0.000 F50.000
G2 X15.257 Y0.002 Z0.000 I0.006 J0.002 F50.000
G2 X15.253 Y-0.007 Z0.000 I-0.006 J-0.002 F50.000
G2 X15.244 Y-0.003 Z0.000 I-0.002 J0.006 F50.000
G0 Z6.270
(finish operation: Profile_Faces001)
(begin postamble)
M05
G17 G54 G90 G80 G40
M2
