(Exported by FreeCAD)
(Post Processor: linuxcnc_post)
(Output Time:2019-04-06 14:11:39.608000)
(begin preamble)
G17 G54 G40 G49 G80 G90
G21
(begin operation: Clearout)
(machine: not set, mm/min)
(Pocket_Shape)
G0 Z17.700
G0 X34.625 Y16.550
G0 Z15.700
G1 X34.625 Y16.550 Z9.525 F160.000
G1 X28.275 Y16.550 Z9.525 F160.000
G1 X28.275 Y-16.550 Z9.525 F160.000
G1 X34.625 Y-16.550 Z9.525 F160.000
G1 X34.625 Y16.550 Z9.525 F160.000
G1 X34.625 Y16.550 Z6.350 F160.000
G1 X28.275 Y16.550 Z6.350 F160.000
G1 X28.275 Y-16.550 Z6.350 F160.000
G1 X34.625 Y-16.550 Z6.350 F160.000
G1 X34.625 Y16.550 Z6.350 F160.000
G1 X34.625 Y16.550 Z3.175 F160.000
G1 X28.275 Y16.550 Z3.175 F160.000
G1 X28.275 Y-16.550 Z3.175 F160.000
G1 X34.625 Y-16.550 Z3.175 F160.000
G1 X34.625 Y16.550 Z3.175 F160.000
G1 X34.625 Y16.550 Z1.500 F160.000
G1 X28.275 Y16.550 Z1.500 F160.000
G1 X28.275 Y-16.550 Z1.500 F160.000
G1 X34.625 Y-16.550 Z1.500 F160.000
G1 X34.625 Y16.550 Z1.500 F160.000
G0 Z17.700
(finish operation: Clearout)
(begin operation: T1: 1/4 inch 3 flute endmil)
(machine: not set, mm/min)
(T1: 1/4 inch 3 flute endmil)
M6 T1
M3 S1050
(finish operation: T1: 1/4 inch 3 flute endmil)
(begin operation: Contour)
(machine: not set, mm/min)
(Contour)
(Compensated Tool Path. Diameter: 6.35)
G0 Z18.700
G0 X33.695 Y24.470
G0 Z16.700
G1 X33.695 Y24.470 Z11.200 F160.000
G2 X34.625 Y22.225 Z11.200 I-2.245 J-2.245 F160.000
G1 X34.625 Y-22.225 Z11.200 F160.000
G2 X31.450 Y-25.400 Z11.200 I-3.175 J0.000 F160.000
G1 X-39.050 Y-25.400 Z11.200 F160.000
G2 X-42.225 Y-22.225 Z11.200 I0.000 J3.175 F160.000
G1 X-42.225 Y22.225 Z11.200 F160.000
G2 X-39.050 Y25.400 Z11.200 I3.175 J-0.000 F160.000
G1 X31.450 Y25.400 Z11.200 F160.000
G2 X33.695 Y24.470 Z11.200 I-0.000 J-3.175 F160.000
G1 X33.695 Y24.470 Z8.700 F160.000
G2 X34.625 Y22.225 Z8.700 I-2.245 J-2.245 F160.000
G1 X34.625 Y-22.225 Z8.700 F160.000
G2 X31.450 Y-25.400 Z8.700 I-3.175 J0.000 F160.000
G1 X-39.050 Y-25.400 Z8.700 F160.000
G2 X-42.225 Y-22.225 Z8.700 I0.000 J3.175 F160.000
G1 X-42.225 Y22.225 Z8.700 F160.000
G2 X-39.050 Y25.400 Z8.700 I3.175 J-0.000 F160.000
G1 X31.450 Y25.400 Z8.700 F160.000
G2 X33.695 Y24.470 Z8.700 I-0.000 J-3.175 F160.000
G1 X33.695 Y24.470 Z6.200 F160.000
G2 X34.625 Y22.225 Z6.200 I-2.245 J-2.245 F160.000
G1 X34.625 Y-22.225 Z6.200 F160.000
G2 X31.450 Y-25.400 Z6.200 I-3.175 J0.000 F160.000
G1 X-39.050 Y-25.400 Z6.200 F160.000
G2 X-42.225 Y-22.225 Z6.200 I0.000 J3.175 F160.000
G1 X-42.225 Y22.225 Z6.200 F160.000
G2 X-39.050 Y25.400 Z6.200 I3.175 J-0.000 F160.000
G1 X31.450 Y25.400 Z6.200 F160.000
G2 X33.695 Y24.470 Z6.200 I-0.000 J-3.175 F160.000
G1 X33.695 Y24.470 Z3.700 F160.000
G2 X34.625 Y22.225 Z3.700 I-2.245 J-2.245 F160.000
G1 X34.625 Y-22.225 Z3.700 F160.000
G2 X31.450 Y-25.400 Z3.700 I-3.175 J0.000 F160.000
G1 X-39.050 Y-25.400 Z3.700 F160.000
G2 X-42.225 Y-22.225 Z3.700 I0.000 J3.175 F160.000
G1 X-42.225 Y22.225 Z3.700 F160.000
G2 X-39.050 Y25.400 Z3.700 I3.175 J-0.000 F160.000
G1 X31.450 Y25.400 Z3.700 F160.000
G2 X33.695 Y24.470 Z3.700 I-0.000 J-3.175 F160.000
G1 X33.695 Y24.470 Z1.200 F160.000
G2 X34.625 Y22.225 Z1.200 I-2.245 J-2.245 F160.000
G1 X34.625 Y-22.225 Z1.200 F160.000
G2 X31.450 Y-25.400 Z1.200 I-3.175 J0.000 F160.000
G1 X-39.050 Y-25.400 Z1.200 F160.000
G2 X-42.225 Y-22.225 Z1.200 I0.000 J3.175 F160.000
G1 X-42.225 Y22.225 Z1.200 F160.000
G2 X-39.050 Y25.400 Z1.200 I3.175 J-0.000 F160.000
G1 X31.450 Y25.400 Z1.200 F160.000
G2 X33.695 Y24.470 Z1.200 I-0.000 J-3.175 F160.000
G1 X33.695 Y24.470 Z-1.000 F160.000
G2 X34.625 Y22.225 Z-1.000 I-2.245 J-2.245 F160.000
G1 X34.625 Y-22.225 Z-1.000 F160.000
G2 X31.450 Y-25.400 Z-1.000 I-3.175 J0.000 F160.000
G1 X-39.050 Y-25.400 Z-1.000 F160.000
G2 X-42.225 Y-22.225 Z-1.000 I0.000 J3.175 F160.000
G1 X-42.225 Y22.225 Z-1.000 F160.000
G2 X-39.050 Y25.400 Z-1.000 I3.175 J-0.000 F160.000
G1 X31.450 Y25.400 Z-1.000 F160.000
G2 X33.695 Y24.470 Z-1.000 I-0.000 J-3.175 F160.000
G0 Z18.700
(finish operation: Contour)
(begin operation: T1: 1/4 inch 3 flute endmil)
(machine: not set, mm/min)
(T1: 1/4 inch 3 flute endmil)
M6 T1
M3 S1050
(finish operation: T1: 1/4 inch 3 flute endmil)
(begin operation: Pocket_Shape001)
(machine: not set, mm/min)
(Pocket_Shape001)
G0 Z18.700
G0 X28.275 Y16.550
G0 Z16.700
G1 X28.275 Y16.550 Z10.530 F160.000
G1 X28.275 Y-16.550 Z10.530 F160.000
G1 X19.944 Y-16.550 Z10.530 F160.000
G3 X5.956 Y-16.550 Z10.530 I-6.994 J-2.005 F160.000
G1 X-5.956 Y-16.550 Z10.530 F160.000
G3 X-19.944 Y-16.550 Z10.530 I-6.994 J-2.005 F160.000
G1 X-33.375 Y-16.550 Z10.530 F160.000
G1 X-33.375 Y16.550 Z10.530 F160.000
G1 X-19.944 Y16.550 Z10.530 F160.000
G3 X-5.956 Y16.550 Z10.530 I6.994 J2.005 F160.000
G1 X5.956 Y16.550 Z10.530 F160.000
G3 X19.944 Y16.550 Z10.530 I6.994 J2.005 F160.000
G1 X28.275 Y16.550 Z10.530 F160.000
G0 X28.275 Y16.550 Z18.700
G0 X28.275 Y16.550 Z18.700
G1 X28.275 Y16.550 Z10.530 F160.000
G1 X20.193 Y16.550 Z10.530 F160.000
G1 X28.275 Y8.468 Z10.530 F160.000
G1 X28.275 Y0.386 Z10.530 F160.000
G1 X16.472 Y12.189 Z10.530 F160.000
G2 X5.956 Y16.550 Z10.530 I-3.522 J6.367 F160.000
G1 X4.028 Y16.550 Z10.530 F160.000
G1 X28.275 Y-7.697 Z10.530 F160.000
G1 X28.275 Y-15.779 Z10.530 F160.000
G1 X-4.054 Y16.550 Z10.530 F160.000
G1 X-5.956 Y16.550 Z10.530 F160.000
G2 X-8.440 Y12.853 Z10.530 I-6.980 J2.007 F160.000
G1 X16.804 Y-12.391 Z10.530 F160.000
G3 X8.864 Y-12.533 Z10.530 I-3.861 J-6.153 F160.000
G1 X-15.352 Y11.683 Z10.530 F160.000
G2 X-19.802 Y16.133 Z10.530 I2.382 J6.832 F160.000
G1 X-20.218 Y16.550 Z10.530 F160.000
G1 X-28.301 Y16.550 Z10.530 F160.000
G1 X4.799 Y-16.550 Z10.530 F160.000
G1 X-3.283 Y-16.550 Z10.530 F160.000
G1 X-33.375 Y13.542 Z10.530 F160.000
G1 X-33.375 Y5.460 Z10.530 F160.000
G1 X-15.973 Y-11.942 Z10.530 F160.000
G3 X-19.818 Y-16.179 Z10.530 I2.982 J-6.569 F160.000
G1 X-33.375 Y-2.622 Z10.530 F160.000
G1 X-33.375 Y-10.705 Z10.530 F160.000
G1 X-33.375 Y-16.550 Z10.530 F160.000
G1 X-27.530 Y-16.550 Z10.530 F160.000
G1 X-33.375 Y-10.705 Z10.530 F160.000
G0 X-33.375 Y-10.705 Z18.700
G0 X-19.802 Y16.133 Z18.700
G1 X-19.802 Y16.133 Z10.530 F160.000
G2 X-19.944 Y16.550 Z10.530 I6.774 J2.547 F160.000
G1 X-20.218 Y16.550 Z10.530 F160.000
G1 X-19.802 Y16.133 Z10.530 F160.000
G0 X-19.802 Y16.133 Z18.700
G0 X19.135 Y-14.721 Z18.700
G1 X19.135 Y-14.721 Z10.530 F160.000
G2 X19.944 Y-16.550 Z10.530 I-6.222 J-3.846 F160.000
G1 X20.964 Y-16.550 Z10.530 F160.000
G1 X19.135 Y-14.721 Z10.530 F160.000
G1 X19.135 Y-14.721 Z7.360 F160.000
G2 X19.944 Y-16.550 Z7.360 I-6.222 J-3.846 F160.000
G1 X20.964 Y-16.550 Z7.360 F160.000
G1 X19.135 Y-14.721 Z7.360 F160.000
G0 X19.135 Y-14.721 Z18.700
G0 X19.134 Y-14.722 Z18.700
G1 X19.134 Y-14.722 Z7.360 F160.000
G3 X5.956 Y-16.550 Z7.360 I-6.184 J-3.833 F160.000
G1 X-5.956 Y-16.550 Z7.360 F160.000
G3 X-19.944 Y-16.550 Z7.360 I-6.994 J-2.005 F160.000
G1 X-33.375 Y-16.550 Z7.360 F160.000
G1 X-33.375 Y16.550 Z7.360 F160.000
G1 X-19.944 Y16.550 Z7.360 F160.000
G3 X-5.956 Y16.550 Z7.360 I6.994 J2.005 F160.000
G1 X5.956 Y16.550 Z7.360 F160.000
G3 X19.944 Y16.550 Z7.360 I6.994 J2.005 F160.000
G1 X28.275 Y16.550 Z7.360 F160.000
G1 X28.275 Y-16.550 Z7.360 F160.000
G1 X19.944 Y-16.550 Z7.360 F160.000
G3 X19.134 Y-14.722 Z7.360 I-6.994 J-2.005 F160.000
G0 X19.134 Y-14.722 Z18.700
G0 X28.275 Y16.550 Z18.700
G1 X28.275 Y16.550 Z7.360 F160.000
G1 X20.193 Y16.550 Z7.360 F160.000
G1 X28.275 Y8.468 Z7.360 F160.000
G1 X28.275 Y0.386 Z7.360 F160.000
G1 X16.472 Y12.189 Z7.360 F160.000
G2 X5.956 Y16.550 Z7.360 I-3.522 J6.367 F160.000
G1 X4.028 Y16.550 Z7.360 F160.000
G1 X28.275 Y-7.697 Z7.360 F160.000
G1 X28.275 Y-15.779 Z7.360 F160.000
G1 X-4.054 Y16.550 Z7.360 F160.000
G1 X-5.956 Y16.550 Z7.360 F160.000
G2 X-8.440 Y12.853 Z7.360 I-6.980 J2.007 F160.000
G1 X16.804 Y-12.391 Z7.360 F160.000
G3 X8.864 Y-12.533 Z7.360 I-3.861 J-6.153 F160.000
G1 X-15.352 Y11.683 Z7.360 F160.000
G2 X-19.802 Y16.133 Z7.360 I2.382 J6.832 F160.000
G1 X-20.218 Y16.550 Z7.360 F160.000
G1 X-28.301 Y16.550 Z7.360 F160.000
G1 X4.799 Y-16.550 Z7.360 F160.000
G1 X-3.283 Y-16.550 Z7.360 F160.000
G1 X-33.375 Y13.542 Z7.360 F160.000
G1 X-33.375 Y5.460 Z7.360 F160.000
G1 X-15.973 Y-11.942 Z7.360 F160.000
G3 X-19.818 Y-16.179 Z7.360 I2.982 J-6.569 F160.000
G1 X-33.375 Y-2.622 Z7.360 F160.000
G1 X-33.375 Y-10.705 Z7.360 F160.000
G1 X-33.375 Y-16.550 Z7.360 F160.000
G1 X-27.530 Y-16.550 Z7.360 F160.000
G1 X-33.375 Y-10.705 Z7.360 F160.000
G0 X-33.375 Y-10.705 Z18.700
G0 X-19.802 Y16.133 Z18.700
G1 X-19.802 Y16.133 Z7.360 F160.000
G2 X-19.944 Y16.550 Z7.360 I6.774 J2.547 F160.000
G1 X-20.218 Y16.550 Z7.360 F160.000
G1 X-19.802 Y16.133 Z7.360 F160.000
G1 X-19.802 Y16.133 Z4.190 F160.000
G2 X-19.944 Y16.550 Z4.190 I6.774 J2.547 F160.000
G1 X-20.218 Y16.550 Z4.190 F160.000
G1 X-19.802 Y16.133 Z4.190 F160.000
G0 X-19.802 Y16.133 Z18.700
G0 X-19.810 Y16.131 Z18.700
G1 X-19.810 Y16.131 Z4.190 F160.000
G3 X-5.956 Y16.550 Z4.190 I6.860 J2.424 F160.000
G1 X5.956 Y16.550 Z4.190 F160.000
G3 X19.944 Y16.550 Z4.190 I6.994 J2.005 F160.000
G1 X28.275 Y16.550 Z4.190 F160.000
G1 X28.275 Y-16.550 Z4.190 F160.000
G1 X19.944 Y-16.550 Z4.190 F160.000
G3 X5.956 Y-16.550 Z4.190 I-6.994 J-2.005 F160.000
G1 X-5.956 Y-16.550 Z4.190 F160.000
G3 X-19.944 Y-16.550 Z4.190 I-6.994 J-2.005 F160.000
G1 X-33.375 Y-16.550 Z4.190 F160.000
G1 X-33.375 Y16.550 Z4.190 F160.000
G1 X-19.944 Y16.550 Z4.190 F160.000
G3 X-19.810 Y16.131 Z4.190 I6.994 J2.005 F160.000
G0 X-19.810 Y16.131 Z18.700
G0 X-33.375 Y-10.705 Z18.700
G1 X-33.375 Y-10.705 Z4.190 F160.000
G1 X-27.530 Y-16.550 Z4.190 F160.000
G1 X-33.375 Y-16.550 Z4.190 F160.000
G1 X-33.375 Y-10.705 Z4.190 F160.000
G1 X-33.375 Y-2.622 Z4.190 F160.000
G1 X-19.818 Y-16.179 Z4.190 F160.000
G2 X-15.973 Y-11.942 Z4.190 I6.827 J-2.332 F160.000
G1 X-33.375 Y5.460 Z4.190 F160.000
G1 X-33.375 Y13.542 Z4.190 F160.000
G1 X-3.283 Y-16.550 Z4.190 F160.000
G1 X4.799 Y-16.550 Z4.190 F160.000
G1 X-28.301 Y16.550 Z4.190 F160.000
G1 X-20.218 Y16.550 Z4.190 F160.000
G1 X-19.802 Y16.133 Z4.190 F160.000
G3 X-15.352 Y11.683 Z4.190 I6.832 J2.382 F160.000
G1 X8.864 Y-12.533 Z4.190 F160.000
G2 X16.804 Y-12.391 Z4.190 I4.079 J-6.010 F160.000
G1 X-8.440 Y12.853 Z4.190 F160.000
G3 X-5.956 Y16.550 Z4.190 I-4.496 J5.704 F160.000
G1 X-4.054 Y16.550 Z4.190 F160.000
G1 X28.275 Y-15.779 Z4.190 F160.000
G1 X28.275 Y-7.697 Z4.190 F160.000
G1 X4.028 Y16.550 Z4.190 F160.000
G1 X5.956 Y16.550 Z4.190 F160.000
G3 X16.472 Y12.189 Z4.190 I6.994 J2.006 F160.000
G1 X28.275 Y0.386 Z4.190 F160.000
G1 X28.275 Y8.468 Z4.190 F160.000
G1 X20.193 Y16.550 Z4.190 F160.000
G1 X28.275 Y16.550 Z4.190 F160.000
G0 X28.275 Y16.550 Z18.700
G0 X19.135 Y-14.721 Z18.700
G1 X19.135 Y-14.721 Z4.190 F160.000
G2 X19.944 Y-16.550 Z4.190 I-6.222 J-3.846 F160.000
G1 X20.964 Y-16.550 Z4.190 F160.000
G1 X19.135 Y-14.721 Z4.190 F160.000
G1 X19.135 Y-14.721 Z1.500 F160.000
G2 X19.944 Y-16.550 Z1.500 I-6.222 J-3.846 F160.000
G1 X20.964 Y-16.550 Z1.500 F160.000
G1 X19.135 Y-14.721 Z1.500 F160.000
G0 X19.135 Y-14.721 Z18.700
G0 X19.134 Y-14.722 Z18.700
G0 X19.134 Y-14.722 Z18.200
G1 X19.134 Y-14.722 Z1.500 F160.000
G3 X5.956 Y-16.550 Z1.500 I-6.184 J-3.833 F160.000
G1 X-5.956 Y-16.550 Z1.500 F160.000
G3 X-19.944 Y-16.550 Z1.500 I-6.994 J-2.005 F160.000
G1 X-33.375 Y-16.550 Z1.500 F160.000
G1 X-33.375 Y16.550 Z1.500 F160.000
G1 X-19.944 Y16.550 Z1.500 F160.000
G3 X-5.956 Y16.550 Z1.500 I6.994 J2.005 F160.000
G1 X5.956 Y16.550 Z1.500 F160.000
G3 X19.944 Y16.550 Z1.500 I6.994 J2.005 F160.000
G1 X28.275 Y16.550 Z1.500 F160.000
G1 X28.275 Y-16.550 Z1.500 F160.000
G1 X19.944 Y-16.550 Z1.500 F160.000
G3 X19.134 Y-14.722 Z1.500 I-6.994 J-2.005 F160.000
G0 X19.134 Y-14.722 Z18.700
G0 X28.275 Y16.550 Z18.700
G0 X28.275 Y16.550 Z18.200
G1 X28.275 Y16.550 Z1.500 F160.000
G1 X20.193 Y16.550 Z1.500 F160.000
G1 X28.275 Y8.468 Z1.500 F160.000
G1 X28.275 Y0.386 Z1.500 F160.000
G1 X16.472 Y12.189 Z1.500 F160.000
G2 X5.956 Y16.550 Z1.500 I-3.522 J6.367 F160.000
G1 X4.028 Y16.550 Z1.500 F160.000
G1 X28.275 Y-7.697 Z1.500 F160.000
G1 X28.275 Y-15.779 Z1.500 F160.000
G1 X-4.054 Y16.550 Z1.500 F160.000
G1 X-5.956 Y16.550 Z1.500 F160.000
G2 X-8.440 Y12.853 Z1.500 I-6.980 J2.007 F160.000
G1 X16.804 Y-12.391 Z1.500 F160.000
G3 X8.864 Y-12.533 Z1.500 I-3.861 J-6.153 F160.000
G1 X-15.352 Y11.683 Z1.500 F160.000
G2 X-19.802 Y16.133 Z1.500 I2.382 J6.832 F160.000
G1 X-20.218 Y16.550 Z1.500 F160.000
G1 X-28.301 Y16.550 Z1.500 F160.000
G1 X4.799 Y-16.550 Z1.500 F160.000
G1 X-3.283 Y-16.550 Z1.500 F160.000
G1 X-33.375 Y13.542 Z1.500 F160.000
G1 X-33.375 Y5.460 Z1.500 F160.000
G1 X-15.973 Y-11.942 Z1.500 F160.000
G3 X-19.818 Y-16.179 Z1.500 I2.982 J-6.569 F160.000
G1 X-33.375 Y-2.622 Z1.500 F160.000
G1 X-33.375 Y-10.705 Z1.500 F160.000
G1 X-33.375 Y-16.550 Z1.500 F160.000
G1 X-27.530 Y-16.550 Z1.500 F160.000
G1 X-33.375 Y-10.705 Z1.500 F160.000
G0 X-33.375 Y-10.705 Z18.700
G0 X-19.802 Y16.133 Z18.700
G0 X-19.802 Y16.133 Z18.200
G1 X-19.802 Y16.133 Z1.500 F160.000
G2 X-19.944 Y16.550 Z1.500 I6.774 J2.547 F160.000
G1 X-20.218 Y16.550 Z1.500 F160.000
G1 X-19.802 Y16.133 Z1.500 F160.000
G0 Z18.700
(finish operation: Pocket_Shape001)
(begin postamble)
M05
G17 G54 G90 G80 G40
M2
