(Exported by FreeCAD)
(Post Processor: linuxcnc_post)
(Output Time:2019-04-06 14:18:43.363000)
(begin preamble)
G17 G54 G40 G49 G80 G90
G21
(begin operation: IDC_Cutout)
(machine: not set, mm/min)
(Pocket_Shape)
G0 Z14.525
G0 X-32.725 Y16.325
G0 Z12.525
G1 X-32.725 Y16.325 Z7.025 F160.000
G1 X-32.725 Y-16.325 Z7.025 F160.000
G1 X-33.375 Y-16.325 Z7.025 F160.000
G1 X-33.375 Y-13.000 Z7.025 F160.000
G3 X-36.550 Y-9.825 Z7.025 I-3.175 J0.000 F160.000
G1 X-40.875 Y-9.825 Z7.025 F160.000
G1 X-40.875 Y9.825 Z7.025 F160.000
G1 X-36.550 Y9.825 Z7.025 F160.000
G3 X-33.375 Y13.000 Z7.025 I0.000 J3.175 F160.000
G1 X-33.375 Y16.325 Z7.025 F160.000
G1 X-32.725 Y16.325 Z7.025 F160.000
G1 X-32.725 Y16.325 Z7.025 F160.000
G1 X-32.725 Y16.004 Z7.025 F160.000
G1 X-33.375 Y15.354 Z7.025 F160.000
G1 X-33.375 Y16.325 Z7.025 F160.000
G1 X-32.725 Y16.325 Z7.025 F160.000
G0 X-32.725 Y16.325 Z14.525
G0 X-40.875 Y7.854 Z14.525
G1 X-40.875 Y7.854 Z7.025 F160.000
G1 X-38.904 Y9.825 Z7.025 F160.000
G1 X-40.875 Y9.825 Z7.025 F160.000
G1 X-40.875 Y7.854 Z7.025 F160.000
G1 X-40.875 Y2.466 Z7.025 F160.000
G1 X-32.725 Y10.616 Z7.025 F160.000
G1 X-32.725 Y5.228 Z7.025 F160.000
G1 X-40.875 Y-2.922 Z7.025 F160.000
G1 X-40.875 Y-8.311 Z7.025 F160.000
G1 X-32.725 Y-0.161 Z7.025 F160.000
G1 X-32.725 Y-5.549 Z7.025 F160.000
G1 X-37.001 Y-9.825 Z7.025 F160.000
G1 X-36.550 Y-9.825 Z7.025 F160.000
G2 X-33.611 Y-11.823 Z7.025 I0.009 J-3.146 F160.000
G1 X-32.725 Y-10.937 Z7.025 F160.000
G1 X-32.725 Y-16.325 Z7.025 F160.000
G1 X-32.725 Y-16.325 Z4.525 F160.000
G1 X-32.725 Y-10.937 Z4.525 F160.000
G1 X-33.611 Y-11.823 Z4.525 F160.000
G3 X-36.550 Y-9.825 Z4.525 I-2.929 J-1.148 F160.000
G1 X-37.001 Y-9.825 Z4.525 F160.000
G1 X-32.725 Y-5.549 Z4.525 F160.000
G1 X-32.725 Y-0.161 Z4.525 F160.000
G1 X-40.875 Y-8.311 Z4.525 F160.000
G1 X-40.875 Y-2.922 Z4.525 F160.000
G1 X-32.725 Y5.228 Z4.525 F160.000
G1 X-32.725 Y10.616 Z4.525 F160.000
G1 X-40.875 Y2.466 Z4.525 F160.000
G1 X-40.875 Y7.854 Z4.525 F160.000
G1 X-40.875 Y9.825 Z4.525 F160.000
G1 X-38.904 Y9.825 Z4.525 F160.000
G1 X-40.875 Y7.854 Z4.525 F160.000
G1 X-40.875 Y7.854 Z4.525 F160.000
G1 X-40.875 Y9.825 Z4.525 F160.000
G1 X-36.550 Y9.825 Z4.525 F160.000
G3 X-33.375 Y13.000 Z4.525 I0.000 J3.175 F160.000
G1 X-33.375 Y16.325 Z4.525 F160.000
G1 X-32.725 Y16.325 Z4.525 F160.000
G1 X-32.725 Y-16.325 Z4.525 F160.000
G1 X-33.375 Y-16.325 Z4.525 F160.000
G1 X-33.375 Y-13.000 Z4.525 F160.000
G3 X-36.550 Y-9.825 Z4.525 I-3.175 J0.000 F160.000
G1 X-40.875 Y-9.825 Z4.525 F160.000
G1 X-40.875 Y7.854 Z4.525 F160.000
G0 X-40.875 Y7.854 Z14.525
G0 X-33.375 Y15.354 Z14.525
G1 X-33.375 Y15.354 Z4.525 F160.000
G1 X-33.375 Y16.325 Z4.525 F160.000
G1 X-32.725 Y16.325 Z4.525 F160.000
G1 X-32.725 Y16.004 Z4.525 F160.000
G1 X-33.375 Y15.354 Z4.525 F160.000
G1 X-33.375 Y15.354 Z2.025 F160.000
G1 X-33.375 Y16.325 Z2.025 F160.000
G1 X-32.725 Y16.325 Z2.025 F160.000
G1 X-32.725 Y16.004 Z2.025 F160.000
G1 X-33.375 Y15.354 Z2.025 F160.000
G1 X-33.375 Y15.354 Z2.025 F160.000
G1 X-33.375 Y16.325 Z2.025 F160.000
G1 X-32.725 Y16.325 Z2.025 F160.000
G1 X-32.725 Y-16.325 Z2.025 F160.000
G1 X-33.375 Y-16.325 Z2.025 F160.000
G1 X-33.375 Y-13.000 Z2.025 F160.000
G3 X-36.550 Y-9.825 Z2.025 I-3.175 J0.000 F160.000
G1 X-40.875 Y-9.825 Z2.025 F160.000
G1 X-40.875 Y9.825 Z2.025 F160.000
G1 X-36.550 Y9.825 Z2.025 F160.000
G3 X-33.375 Y13.000 Z2.025 I0.000 J3.175 F160.000
G1 X-33.375 Y15.354 Z2.025 F160.000
G0 X-33.375 Y15.354 Z14.525
G0 X-40.875 Y7.854 Z14.525
G1 X-40.875 Y7.854 Z2.025 F160.000
G1 X-38.904 Y9.825 Z2.025 F160.000
G1 X-40.875 Y9.825 Z2.025 F160.000
G1 X-40.875 Y7.854 Z2.025 F160.000
G1 X-40.875 Y2.466 Z2.025 F160.000
G1 X-32.725 Y10.616 Z2.025 F160.000
G1 X-32.725 Y5.228 Z2.025 F160.000
G1 X-40.875 Y-2.922 Z2.025 F160.000
G1 X-40.875 Y-8.311 Z2.025 F160.000
G1 X-32.725 Y-0.161 Z2.025 F160.000
G1 X-32.725 Y-5.549 Z2.025 F160.000
G1 X-37.001 Y-9.825 Z2.025 F160.000
G1 X-36.550 Y-9.825 Z2.025 F160.000
G2 X-33.611 Y-11.823 Z2.025 I0.009 J-3.146 F160.000
G1 X-32.725 Y-10.937 Z2.025 F160.000
G1 X-32.725 Y-16.325 Z2.025 F160.000
G1 X-32.725 Y-16.325 Z1.500 F160.000
G1 X-32.725 Y-10.937 Z1.500 F160.000
G1 X-33.611 Y-11.823 Z1.500 F160.000
G3 X-36.550 Y-9.825 Z1.500 I-2.929 J-1.148 F160.000
G1 X-37.001 Y-9.825 Z1.500 F160.000
G1 X-32.725 Y-5.549 Z1.500 F160.000
G1 X-32.725 Y-0.161 Z1.500 F160.000
G1 X-40.875 Y-8.311 Z1.500 F160.000
G1 X-40.875 Y-2.922 Z1.500 F160.000
G1 X-32.725 Y5.228 Z1.500 F160.000
G1 X-32.725 Y10.616 Z1.500 F160.000
G1 X-40.875 Y2.466 Z1.500 F160.000
G1 X-40.875 Y7.854 Z1.500 F160.000
G1 X-40.875 Y9.825 Z1.500 F160.000
G1 X-38.904 Y9.825 Z1.500 F160.000
G1 X-40.875 Y7.854 Z1.500 F160.000
G1 X-40.875 Y7.854 Z1.500 F160.000
G1 X-40.875 Y9.825 Z1.500 F160.000
G1 X-36.550 Y9.825 Z1.500 F160.000
G3 X-33.375 Y13.000 Z1.500 I0.000 J3.175 F160.000
G1 X-33.375 Y16.325 Z1.500 F160.000
G1 X-32.725 Y16.325 Z1.500 F160.000
G1 X-32.725 Y-16.325 Z1.500 F160.000
G1 X-33.375 Y-16.325 Z1.500 F160.000
G1 X-33.375 Y-13.000 Z1.500 F160.000
G3 X-36.550 Y-9.825 Z1.500 I-3.175 J0.000 F160.000
G1 X-40.875 Y-9.825 Z1.500 F160.000
G1 X-40.875 Y7.854 Z1.500 F160.000
G0 X-40.875 Y7.854 Z14.525
G0 X-33.375 Y15.354 Z14.525
G0 X-33.375 Y15.354 Z14.025
G1 X-33.375 Y15.354 Z1.500 F160.000
G1 X-33.375 Y16.325 Z1.500 F160.000
G1 X-32.725 Y16.325 Z1.500 F160.000
G1 X-32.725 Y16.004 Z1.500 F160.000
G1 X-33.375 Y15.354 Z1.500 F160.000
G0 Z14.525
(finish operation: IDC_Cutout)
(begin operation: T1: 1/4 inch 3 flute endmill001)
(machine: not set, mm/min)
(T1: 1/4 inch 3 flute endmill001)
M6 T1
M3 S1050
(finish operation: T1: 1/4 inch 3 flute endmill001)
(begin operation: Contour)
(machine: not set, mm/min)
(Contour)
(Compensated Tool Path. Diameter: 6.35)
G0 Z15.525
G0 X33.695 Y24.245
G0 Z13.525
G1 X33.695 Y24.245 Z8.025 F160.000
G2 X34.625 Y22.000 Z8.025 I-2.245 J-2.245 F1600.000
G1 X34.625 Y-22.000 Z8.025 F1600.000
G2 X31.450 Y-25.175 Z8.025 I-3.175 J0.000 F1600.000
G1 X-39.050 Y-25.175 Z8.025 F1600.000
G2 X-42.225 Y-22.000 Z8.025 I0.000 J3.175 F1600.000
G1 X-42.225 Y-13.000 Z8.025 F1600.000
G2 X-39.547 Y-9.864 Z8.025 I3.175 J0.000 F1600.000
G2 X-37.725 Y-9.825 Z8.025 I1.159 J-11.554 F1600.000
G1 X-37.725 Y9.825 Z8.025 F1600.000
G1 X-39.050 Y9.825 Z8.025 F1600.000
G2 X-42.225 Y13.000 Z8.025 I0.000 J3.175 F1600.000
G1 X-42.225 Y22.000 Z8.025 F1600.000
G2 X-39.050 Y25.175 Z8.025 I3.175 J-0.000 F1600.000
G1 X31.450 Y25.175 Z8.025 F1600.000
G2 X33.695 Y24.245 Z8.025 I-0.000 J-3.175 F1600.000
G1 X33.695 Y24.245 Z5.525 F160.000
G2 X34.625 Y22.000 Z5.525 I-2.245 J-2.245 F1600.000
G1 X34.625 Y-22.000 Z5.525 F1600.000
G2 X31.450 Y-25.175 Z5.525 I-3.175 J0.000 F1600.000
G1 X-39.050 Y-25.175 Z5.525 F1600.000
G2 X-42.225 Y-22.000 Z5.525 I0.000 J3.175 F1600.000
G1 X-42.225 Y-13.000 Z5.525 F1600.000
G2 X-39.547 Y-9.864 Z5.525 I3.175 J0.000 F1600.000
G2 X-37.725 Y-9.825 Z5.525 I1.159 J-11.554 F1600.000
G1 X-37.725 Y9.825 Z5.525 F1600.000
G1 X-39.050 Y9.825 Z5.525 F1600.000
G2 X-42.225 Y13.000 Z5.525 I0.000 J3.175 F1600.000
G1 X-42.225 Y22.000 Z5.525 F1600.000
G2 X-39.050 Y25.175 Z5.525 I3.175 J-0.000 F1600.000
G1 X31.450 Y25.175 Z5.525 F1600.000
G2 X33.695 Y24.245 Z5.525 I-0.000 J-3.175 F1600.000
G1 X33.695 Y24.245 Z3.025 F160.000
G2 X34.625 Y22.000 Z3.025 I-2.245 J-2.245 F1600.000
G1 X34.625 Y-22.000 Z3.025 F1600.000
G2 X31.450 Y-25.175 Z3.025 I-3.175 J0.000 F1600.000
G1 X-39.050 Y-25.175 Z3.025 F1600.000
G2 X-42.225 Y-22.000 Z3.025 I0.000 J3.175 F1600.000
G1 X-42.225 Y-13.000 Z3.025 F1600.000
G2 X-39.547 Y-9.864 Z3.025 I3.175 J0.000 F1600.000
G2 X-37.725 Y-9.825 Z3.025 I1.159 J-11.554 F1600.000
G1 X-37.725 Y9.825 Z3.025 F1600.000
G1 X-39.050 Y9.825 Z3.025 F1600.000
G2 X-42.225 Y13.000 Z3.025 I0.000 J3.175 F1600.000
G1 X-42.225 Y22.000 Z3.025 F1600.000
G2 X-39.050 Y25.175 Z3.025 I3.175 J-0.000 F1600.000
G1 X31.450 Y25.175 Z3.025 F1600.000
G2 X33.695 Y24.245 Z3.025 I-0.000 J-3.175 F1600.000
G1 X33.695 Y24.245 Z0.525 F160.000
G2 X34.625 Y22.000 Z0.525 I-2.245 J-2.245 F1600.000
G1 X34.625 Y-22.000 Z0.525 F1600.000
G2 X31.450 Y-25.175 Z0.525 I-3.175 J0.000 F1600.000
G1 X-39.050 Y-25.175 Z0.525 F1600.000
G2 X-42.225 Y-22.000 Z0.525 I0.000 J3.175 F1600.000
G1 X-42.225 Y-13.000 Z0.525 F1600.000
G2 X-39.547 Y-9.864 Z0.525 I3.175 J0.000 F1600.000
G2 X-37.725 Y-9.825 Z0.525 I1.159 J-11.554 F1600.000
G1 X-37.725 Y9.825 Z0.525 F1600.000
G1 X-39.050 Y9.825 Z0.525 F1600.000
G2 X-42.225 Y13.000 Z0.525 I0.000 J3.175 F1600.000
G1 X-42.225 Y22.000 Z0.525 F1600.000
G2 X-39.050 Y25.175 Z0.525 I3.175 J-0.000 F1600.000
G1 X31.450 Y25.175 Z0.525 F1600.000
G2 X33.695 Y24.245 Z0.525 I-0.000 J-3.175 F1600.000
G1 X33.695 Y24.245 Z-1.000 F160.000
G2 X34.625 Y22.000 Z-1.000 I-2.245 J-2.245 F1600.000
G1 X34.625 Y-22.000 Z-1.000 F1600.000
G2 X31.450 Y-25.175 Z-1.000 I-3.175 J0.000 F1600.000
G1 X-39.050 Y-25.175 Z-1.000 F1600.000
G2 X-42.225 Y-22.000 Z-1.000 I0.000 J3.175 F1600.000
G1 X-42.225 Y-13.000 Z-1.000 F1600.000
G2 X-39.547 Y-9.864 Z-1.000 I3.175 J0.000 F1600.000
G2 X-37.725 Y-9.825 Z-1.000 I1.159 J-11.554 F1600.000
G1 X-37.725 Y9.825 Z-1.000 F1600.000
G1 X-39.050 Y9.825 Z-1.000 F1600.000
G2 X-42.225 Y13.000 Z-1.000 I0.000 J3.175 F1600.000
G1 X-42.225 Y22.000 Z-1.000 F1600.000
G2 X-39.050 Y25.175 Z-1.000 I3.175 J-0.000 F1600.000
G1 X31.450 Y25.175 Z-1.000 F1600.000
G2 X33.695 Y24.245 Z-1.000 I-0.000 J-3.175 F1600.000
G0 Z15.525
(finish operation: Contour)
(begin operation: T1: 1/4 inch 3 flute endmill001)
(machine: not set, mm/min)
(T1: 1/4 inch 3 flute endmill001)
M6 T1
M3 S1050
(finish operation: T1: 1/4 inch 3 flute endmill001)
(begin operation: Pocket_Shape001)
(machine: not set, mm/min)
(Pocket_Shape001)
G0 Z15.525
G0 X25.775 Y16.325
G0 Z13.525
G1 X25.775 Y16.325 Z8.025 F160.000
G1 X25.775 Y10.000 Z8.025 F1600.000
G3 X26.275 Y8.307 Z8.025 I3.046 J-0.020 F1600.000
G1 X26.275 Y-8.307 Z8.025 F1600.000
G3 X25.775 Y-10.000 Z8.025 I2.546 J-1.672 F1600.000
G1 X25.775 Y-16.325 Z8.025 F1600.000
G1 X19.870 Y-16.325 Z8.025 F1600.000
G3 X6.030 Y-16.325 Z8.025 I-6.920 J-2.222 F1600.000
G1 X-6.030 Y-16.325 Z8.025 F1600.000
G3 X-19.870 Y-16.325 Z8.025 I-6.920 J-2.222 F1600.000
G1 X-33.375 Y-16.325 Z8.025 F1600.000
G1 X-33.375 Y-15.939 Z8.025 F1600.000
G3 X-31.375 Y-13.000 Z8.025 I-1.146 J2.930 F1600.000
G1 X-31.375 Y13.000 Z8.025 F1600.000
G3 X-33.375 Y15.939 Z8.025 I-3.146 J0.009 F1600.000
G1 X-33.375 Y16.325 Z8.025 F1600.000
G1 X-19.868 Y16.325 Z8.025 F1600.000
G3 X-6.032 Y16.325 Z8.025 I6.918 J2.214 F1600.000
G1 X6.032 Y16.325 Z8.025 F1600.000
G3 X19.868 Y16.325 Z8.025 I6.918 J2.214 F1600.000
G1 X25.775 Y16.325 Z8.025 F1600.000
G0 X25.775 Y16.325 Z15.525
G0 X25.775 Y-16.325 Z15.525
G1 X25.775 Y-16.325 Z8.025 F160.000
G1 X25.775 Y-10.000 Z8.025 F1600.000
G2 X26.275 Y-8.307 Z8.025 I3.046 J0.020 F1600.000
G1 X26.275 Y-7.743 Z8.025 F1600.000
G1 X19.196 Y-14.822 Z8.025 F1600.000
G3 X14.494 Y-11.442 Z8.025 I-6.240 J-3.721 F1600.000
G1 X26.275 Y0.339 Z8.025 F1600.000
G1 X26.275 Y8.307 Z8.025 F1600.000
G1 X26.232 Y8.378 Z8.025 F1600.000
G1 X1.528 Y-16.325 Z8.025 F1600.000
G1 X-6.030 Y-16.325 Z8.025 F1600.000
G1 X-6.167 Y-15.939 Z8.025 F1600.000
G1 X25.775 Y16.004 Z8.025 F1600.000
G1 X25.775 Y16.325 Z8.025 F1600.000
G1 X19.868 Y16.325 Z8.025 F1600.000
G2 X12.964 Y11.275 Z8.025 I-6.914 J2.208 F1600.000
G1 X-10.154 Y-11.843 Z8.025 F1600.000
G3 X-19.870 Y-16.325 Z8.025 I-2.802 J-6.698 F1600.000
G1 X-22.718 Y-16.325 Z8.025 F1600.000
G1 X7.430 Y13.824 Z8.025 F1600.000
G2 X6.032 Y16.325 Z8.025 I5.178 J4.536 F1600.000
G1 X1.849 Y16.325 Z8.025 F1600.000
G1 X-30.801 Y-16.325 Z8.025 F1600.000
G1 X-33.375 Y-16.325 Z8.025 F1600.000
G1 X-33.375 Y-15.939 Z8.025 F1600.000
G3 X-31.375 Y-13.000 Z8.025 I-1.146 J2.930 F1600.000
G1 X-31.375 Y-8.817 Z8.025 F1600.000
G1 X-11.022 Y11.536 Z8.025 F1600.000
G2 X-17.641 Y12.999 Z8.025 I-1.927 J6.984 F1600.000
G1 X-31.375 Y-0.735 Z8.025 F1600.000
G1 X-31.375 Y7.347 Z8.025 F1600.000
G1 X-22.397 Y16.325 Z8.025 F1600.000
G1 X-30.480 Y16.325 Z8.025 F1600.000
G1 X-31.965 Y14.840 Z8.025 F1600.000
G3 X-33.375 Y15.939 Z8.025 I-2.481 J-1.727 F1600.000
G1 X-33.375 Y16.325 Z8.025 F1600.000
G1 X-30.480 Y16.325 Z8.025 F1600.000
G1 X-30.480 Y16.325 Z5.525 F160.000
G1 X-19.868 Y16.325 Z5.525 F1600.000
G3 X-6.032 Y16.325 Z5.525 I6.918 J2.214 F1600.000
G1 X6.032 Y16.325 Z5.525 F1600.000
G3 X19.868 Y16.325 Z5.525 I6.918 J2.214 F1600.000
G1 X25.775 Y16.325 Z5.525 F1600.000
G1 X25.775 Y10.000 Z5.525 F1600.000
G3 X26.275 Y8.307 Z5.525 I3.046 J-0.020 F1600.000
G1 X26.275 Y-8.307 Z5.525 F1600.000
G3 X25.775 Y-10.000 Z5.525 I2.546 J-1.672 F1600.000
G1 X25.775 Y-16.325 Z5.525 F1600.000
G1 X19.870 Y-16.325 Z5.525 F1600.000
G3 X6.030 Y-16.325 Z5.525 I-6.920 J-2.222 F1600.000
G1 X-6.030 Y-16.325 Z5.525 F1600.000
G3 X-19.870 Y-16.325 Z5.525 I-6.920 J-2.222 F1600.000
G1 X-33.375 Y-16.325 Z5.525 F1600.000
G1 X-33.375 Y-15.939 Z5.525 F1600.000
G3 X-31.375 Y-13.000 Z5.525 I-1.146 J2.930 F1600.000
G1 X-31.375 Y13.000 Z5.525 F1600.000
G3 X-33.375 Y15.939 Z5.525 I-3.146 J0.009 F1600.000
G1 X-33.375 Y16.325 Z5.525 F1600.000
G1 X-30.480 Y16.325 Z5.525 F1600.000
G1 X-30.480 Y16.325 Z5.525 F160.000
G1 X-33.375 Y16.325 Z5.525 F1600.000
G1 X-33.375 Y15.939 Z5.525 F1600.000
G2 X-31.965 Y14.840 Z5.525 I-1.071 J-2.826 F1600.000
G1 X-30.480 Y16.325 Z5.525 F1600.000
G1 X-22.397 Y16.325 Z5.525 F1600.000
G1 X-31.375 Y7.347 Z5.525 F1600.000
G1 X-31.375 Y-0.735 Z5.525 F1600.000
G1 X-17.641 Y12.999 Z5.525 F1600.000
G3 X-11.022 Y11.536 Z5.525 I4.692 J5.521 F1600.000
G1 X-31.375 Y-8.817 Z5.525 F1600.000
G1 X-31.375 Y-13.000 Z5.525 F1600.000
G2 X-33.375 Y-15.939 Z5.525 I-3.146 J-0.009 F1600.000
G1 X-33.375 Y-16.325 Z5.525 F1600.000
G1 X-30.801 Y-16.325 Z5.525 F1600.000
G1 X1.849 Y16.325 Z5.525 F1600.000
G1 X6.032 Y16.325 Z5.525 F1600.000
G3 X7.430 Y13.824 Z5.525 I6.576 J2.035 F1600.000
G1 X-22.718 Y-16.325 Z5.525 F1600.000
G1 X-19.870 Y-16.325 Z5.525 F1600.000
G2 X-10.154 Y-11.843 Z5.525 I6.914 J-2.217 F1600.000
G1 X12.964 Y11.275 Z5.525 F1600.000
G3 X19.868 Y16.325 Z5.525 I-0.010 J7.258 F1600.000
G1 X25.775 Y16.325 Z5.525 F1600.000
G1 X25.775 Y16.004 Z5.525 F1600.000
G1 X-6.167 Y-15.939 Z5.525 F1600.000
G1 X-6.030 Y-16.325 Z5.525 F1600.000
G1 X1.528 Y-16.325 Z5.525 F1600.000
G1 X26.232 Y8.378 Z5.525 F1600.000
G1 X26.275 Y8.307 Z5.525 F1600.000
G1 X26.275 Y0.339 Z5.525 F1600.000
G1 X14.494 Y-11.442 Z5.525 F1600.000
G2 X19.196 Y-14.822 Z5.525 I-1.538 J-7.101 F1600.000
G1 X26.275 Y-7.743 Z5.525 F1600.000
G1 X26.275 Y-8.307 Z5.525 F1600.000
G3 X25.775 Y-10.000 Z5.525 I2.546 J-1.672 F1600.000
G1 X25.775 Y-16.325 Z5.525 F1600.000
G1 X25.775 Y-16.325 Z3.025 F160.000
G1 X19.870 Y-16.325 Z3.025 F1600.000
G3 X6.030 Y-16.325 Z3.025 I-6.920 J-2.222 F1600.000
G1 X-6.030 Y-16.325 Z3.025 F1600.000
G3 X-19.870 Y-16.325 Z3.025 I-6.920 J-2.222 F1600.000
G1 X-33.375 Y-16.325 Z3.025 F1600.000
G1 X-33.375 Y-15.939 Z3.025 F1600.000
G3 X-31.375 Y-13.000 Z3.025 I-1.146 J2.930 F1600.000
G1 X-31.375 Y13.000 Z3.025 F1600.000
G3 X-33.375 Y15.939 Z3.025 I-3.146 J0.009 F1600.000
G1 X-33.375 Y16.325 Z3.025 F1600.000
G1 X-19.868 Y16.325 Z3.025 F1600.000
G3 X-6.032 Y16.325 Z3.025 I6.918 J2.214 F1600.000
G1 X6.032 Y16.325 Z3.025 F1600.000
G3 X19.868 Y16.325 Z3.025 I6.918 J2.214 F1600.000
G1 X25.775 Y16.325 Z3.025 F1600.000
G1 X25.775 Y10.000 Z3.025 F1600.000
G3 X26.275 Y8.307 Z3.025 I3.046 J-0.020 F1600.000
G1 X26.275 Y-8.307 Z3.025 F1600.000
G3 X25.775 Y-10.000 Z3.025 I2.546 J-1.672 F1600.000
G1 X25.775 Y-16.325 Z3.025 F1600.000
G1 X25.775 Y-16.325 Z3.025 F160.000
G1 X25.775 Y-10.000 Z3.025 F1600.000
G2 X26.275 Y-8.307 Z3.025 I3.046 J0.020 F1600.000
G1 X26.275 Y-7.743 Z3.025 F1600.000
G1 X19.196 Y-14.822 Z3.025 F1600.000
G3 X14.494 Y-11.442 Z3.025 I-6.240 J-3.721 F1600.000
G1 X26.275 Y0.339 Z3.025 F1600.000
G1 X26.275 Y8.307 Z3.025 F1600.000
G1 X26.232 Y8.378 Z3.025 F1600.000
G1 X1.528 Y-16.325 Z3.025 F1600.000
G1 X-6.030 Y-16.325 Z3.025 F1600.000
G1 X-6.167 Y-15.939 Z3.025 F1600.000
G1 X25.775 Y16.004 Z3.025 F1600.000
G1 X25.775 Y16.325 Z3.025 F1600.000
G1 X19.868 Y16.325 Z3.025 F1600.000
G2 X12.964 Y11.275 Z3.025 I-6.914 J2.208 F1600.000
G1 X-10.154 Y-11.843 Z3.025 F1600.000
G3 X-19.870 Y-16.325 Z3.025 I-2.802 J-6.698 F1600.000
G1 X-22.718 Y-16.325 Z3.025 F1600.000
G1 X7.430 Y13.824 Z3.025 F1600.000
G2 X6.032 Y16.325 Z3.025 I5.178 J4.536 F1600.000
G1 X1.849 Y16.325 Z3.025 F1600.000
G1 X-30.801 Y-16.325 Z3.025 F1600.000
G1 X-33.375 Y-16.325 Z3.025 F1600.000
G1 X-33.375 Y-15.939 Z3.025 F1600.000
G3 X-31.375 Y-13.000 Z3.025 I-1.146 J2.930 F1600.000
G1 X-31.375 Y-8.817 Z3.025 F1600.000
G1 X-11.022 Y11.536 Z3.025 F1600.000
G2 X-17.641 Y12.999 Z3.025 I-1.927 J6.984 F1600.000
G1 X-31.375 Y-0.735 Z3.025 F1600.000
G1 X-31.375 Y7.347 Z3.025 F1600.000
G1 X-22.397 Y16.325 Z3.025 F1600.000
G1 X-30.480 Y16.325 Z3.025 F1600.000
G1 X-31.965 Y14.840 Z3.025 F1600.000
G3 X-33.375 Y15.939 Z3.025 I-2.481 J-1.727 F1600.000
G1 X-33.375 Y16.325 Z3.025 F1600.000
G1 X-30.480 Y16.325 Z3.025 F1600.000
G1 X-30.480 Y16.325 Z1.500 F160.000
G1 X-19.868 Y16.325 Z1.500 F1600.000
G3 X-6.032 Y16.325 Z1.500 I6.918 J2.214 F1600.000
G1 X6.032 Y16.325 Z1.500 F1600.000
G3 X19.868 Y16.325 Z1.500 I6.918 J2.214 F1600.000
G1 X25.775 Y16.325 Z1.500 F1600.000
G1 X25.775 Y10.000 Z1.500 F1600.000
G3 X26.275 Y8.307 Z1.500 I3.046 J-0.020 F1600.000
G1 X26.275 Y-8.307 Z1.500 F1600.000
G3 X25.775 Y-10.000 Z1.500 I2.546 J-1.672 F1600.000
G1 X25.775 Y-16.325 Z1.500 F1600.000
G1 X19.870 Y-16.325 Z1.500 F1600.000
G3 X6.030 Y-16.325 Z1.500 I-6.920 J-2.222 F1600.000
G1 X-6.030 Y-16.325 Z1.500 F1600.000
G3 X-19.870 Y-16.325 Z1.500 I-6.920 J-2.222 F1600.000
G1 X-33.375 Y-16.325 Z1.500 F1600.000
G1 X-33.375 Y-15.939 Z1.500 F1600.000
G3 X-31.375 Y-13.000 Z1.500 I-1.146 J2.930 F1600.000
G1 X-31.375 Y13.000 Z1.500 F1600.000
G3 X-33.375 Y15.939 Z1.500 I-3.146 J0.009 F1600.000
G1 X-33.375 Y16.325 Z1.500 F1600.000
G1 X-30.480 Y16.325 Z1.500 F1600.000
G1 X-30.480 Y16.325 Z1.500 F160.000
G1 X-33.375 Y16.325 Z1.500 F1600.000
G1 X-33.375 Y15.939 Z1.500 F1600.000
G2 X-31.965 Y14.840 Z1.500 I-1.071 J-2.826 F1600.000
G1 X-30.480 Y16.325 Z1.500 F1600.000
G1 X-22.397 Y16.325 Z1.500 F1600.000
G1 X-31.375 Y7.347 Z1.500 F1600.000
G1 X-31.375 Y-0.735 Z1.500 F1600.000
G1 X-17.641 Y12.999 Z1.500 F1600.000
G3 X-11.022 Y11.536 Z1.500 I4.692 J5.521 F1600.000
G1 X-31.375 Y-8.817 Z1.500 F1600.000
G1 X-31.375 Y-13.000 Z1.500 F1600.000
G2 X-33.375 Y-15.939 Z1.500 I-3.146 J-0.009 F1600.000
G1 X-33.375 Y-16.325 Z1.500 F1600.000
G1 X-30.801 Y-16.325 Z1.500 F1600.000
G1 X1.849 Y16.325 Z1.500 F1600.000
G1 X6.032 Y16.325 Z1.500 F1600.000
G3 X7.430 Y13.824 Z1.500 I6.576 J2.035 F1600.000
G1 X-22.718 Y-16.325 Z1.500 F1600.000
G1 X-19.870 Y-16.325 Z1.500 F1600.000
G2 X-10.154 Y-11.843 Z1.500 I6.914 J-2.217 F1600.000
G1 X12.964 Y11.275 Z1.500 F1600.000
G3 X19.868 Y16.325 Z1.500 I-0.010 J7.258 F1600.000
G1 X25.775 Y16.325 Z1.500 F1600.000
G1 X25.775 Y16.004 Z1.500 F1600.000
G1 X-6.167 Y-15.939 Z1.500 F1600.000
G1 X-6.030 Y-16.325 Z1.500 F1600.000
G1 X1.528 Y-16.325 Z1.500 F1600.000
G1 X26.232 Y8.378 Z1.500 F1600.000
G1 X26.275 Y8.307 Z1.500 F1600.000
G1 X26.275 Y0.339 Z1.500 F1600.000
G1 X14.494 Y-11.442 Z1.500 F1600.000
G2 X19.196 Y-14.822 Z1.500 I-1.538 J-7.101 F1600.000
G1 X26.275 Y-7.743 Z1.500 F1600.000
G1 X26.275 Y-8.307 Z1.500 F1600.000
G3 X25.775 Y-10.000 Z1.500 I2.546 J-1.672 F1600.000
G1 X25.775 Y-16.325 Z1.500 F1600.000
G0 Z15.525
(finish operation: Pocket_Shape001)
(begin postamble)
M05
G17 G54 G90 G80 G40
M2
