(Exported by FreeCAD)
(Post Processor: linuxcnc_post)
(Output Time:2019-03-23 20:15:23.532000)
(begin preamble)
G17 G54 G40 G49 G80 G90
G21
(begin operation: IDC_Cutout)
(machine: not set, mm/min)
(IDC_Cutout)
G0 Z5.000
G0 X-32.725 Y16.325
G0 Z3.000
G1 X-32.725 Y16.325 Z-2.500 F100.000
G1 X-33.375 Y16.325 Z-2.500 F100.000
G1 X-33.375 Y13.000 Z-2.500 F100.000
G2 X-36.550 Y9.825 Z-2.500 I-3.175 J0.000 F100.000
G1 X-40.875 Y9.825 Z-2.500 F100.000
G1 X-40.875 Y-9.825 Z-2.500 F100.000
G1 X-36.550 Y-9.825 Z-2.500 F100.000
G2 X-33.375 Y-13.000 Z-2.500 I-0.000 J-3.175 F100.000
G1 X-33.375 Y-16.325 Z-2.500 F100.000
G1 X-32.725 Y-16.325 Z-2.500 F100.000
G1 X-32.725 Y16.325 Z-2.500 F100.000
G0 X-32.725 Y16.325 Z5.000
G0 X-36.535 Y6.016 Z5.000
G0 X-36.535 Y6.016 Z0.500
G1 X-36.535 Y6.016 Z-2.500 F100.000
G2 X-37.065 Y6.015 Z-2.500 I-0.273 J6.631 F100.000
G1 X-37.065 Y-6.015 Z-2.500 F100.000
G2 X-36.535 Y-6.016 Z-2.500 I0.258 J-4.972 F100.000
G1 X-36.535 Y6.016 Z-2.500 F100.000
G1 X-36.535 Y6.016 Z-5.000 F100.000
G2 X-37.065 Y6.015 Z-5.000 I-0.273 J6.631 F100.000
G1 X-37.065 Y-6.015 Z-5.000 F100.000
G2 X-36.535 Y-6.016 Z-5.000 I0.258 J-4.972 F100.000
G1 X-36.535 Y6.016 Z-5.000 F100.000
G0 X-36.535 Y6.016 Z5.000
G0 X-36.550 Y9.825 Z5.000
G0 X-36.550 Y9.825 Z-2.000
G1 X-36.550 Y9.825 Z-5.000 F100.000
G1 X-40.875 Y9.825 Z-5.000 F100.000
G1 X-40.875 Y-9.825 Z-5.000 F100.000
G1 X-36.550 Y-9.825 Z-5.000 F100.000
G2 X-33.375 Y-13.000 Z-5.000 I-0.000 J-3.175 F100.000
G1 X-33.375 Y-16.325 Z-5.000 F100.000
G1 X-32.725 Y-16.325 Z-5.000 F100.000
G1 X-32.725 Y16.325 Z-5.000 F100.000
G1 X-33.375 Y16.325 Z-5.000 F100.000
G1 X-33.375 Y13.000 Z-5.000 F100.000
G2 X-36.550 Y9.825 Z-5.000 I-3.175 J0.000 F100.000
G1 X-36.550 Y9.825 Z-7.500 F100.000
G1 X-40.875 Y9.825 Z-7.500 F100.000
G1 X-40.875 Y-9.825 Z-7.500 F100.000
G1 X-36.550 Y-9.825 Z-7.500 F100.000
G2 X-33.375 Y-13.000 Z-7.500 I-0.000 J-3.175 F100.000
G1 X-33.375 Y-16.325 Z-7.500 F100.000
G1 X-32.725 Y-16.325 Z-7.500 F100.000
G1 X-32.725 Y16.325 Z-7.500 F100.000
G1 X-33.375 Y16.325 Z-7.500 F100.000
G1 X-33.375 Y13.000 Z-7.500 F100.000
G2 X-36.550 Y9.825 Z-7.500 I-3.175 J0.000 F100.000
G0 X-36.550 Y9.825 Z5.000
G0 X-36.535 Y6.016 Z5.000
G0 X-36.535 Y6.016 Z-4.500
G1 X-36.535 Y6.016 Z-7.500 F100.000
G2 X-37.065 Y6.015 Z-7.500 I-0.273 J6.631 F100.000
G1 X-37.065 Y-6.015 Z-7.500 F100.000
G2 X-36.535 Y-6.016 Z-7.500 I0.258 J-4.972 F100.000
G1 X-36.535 Y6.016 Z-7.500 F100.000
G1 X-36.535 Y6.016 Z-8.025 F100.000
G2 X-37.065 Y6.015 Z-8.025 I-0.273 J6.631 F100.000
G1 X-37.065 Y-6.015 Z-8.025 F100.000
G2 X-36.535 Y-6.016 Z-8.025 I0.258 J-4.972 F100.000
G1 X-36.535 Y6.016 Z-8.025 F100.000
G0 X-36.535 Y6.016 Z5.000
G0 X-36.550 Y9.825 Z5.000
G0 X-36.550 Y9.825 Z-5.025
G1 X-36.550 Y9.825 Z-8.025 F100.000
G1 X-40.875 Y9.825 Z-8.025 F100.000
G1 X-40.875 Y-9.825 Z-8.025 F100.000
G1 X-36.550 Y-9.825 Z-8.025 F100.000
G2 X-33.375 Y-13.000 Z-8.025 I-0.000 J-3.175 F100.000
G1 X-33.375 Y-16.325 Z-8.025 F100.000
G1 X-32.725 Y-16.325 Z-8.025 F100.000
G1 X-32.725 Y16.325 Z-8.025 F100.000
G1 X-33.375 Y16.325 Z-8.025 F100.000
G1 X-33.375 Y13.000 Z-8.025 F100.000
G2 X-36.550 Y9.825 Z-8.025 I-3.175 J0.000 F100.000
G0 Z5.000
(finish operation: IDC_Cutout)
(begin operation: T1: 1/4 inch 4 flute endmill001)
(machine: not set, mm/min)
(T1: 1/4 inch 4 flute endmill001)
M6 T1
M3 S300
(finish operation: T1: 1/4 inch 4 flute endmill001)
(begin operation: Contour)
(machine: not set, mm/min)
(Contour)
(Compensated Tool Path. Diameter: 6.35)
G0 Z5.000
G0 X33.695 Y24.245
G0 Z3.000
G1 X33.695 Y24.245 Z-2.500 F100.000
G2 X34.625 Y22.000 Z-2.500 I-2.245 J-2.245 F100.000
G1 X34.625 Y-22.000 Z-2.500 F100.000
G2 X31.450 Y-25.175 Z-2.500 I-3.175 J0.000 F100.000
G1 X-39.050 Y-25.175 Z-2.500 F100.000
G2 X-42.225 Y-22.000 Z-2.500 I0.000 J3.175 F100.000
G1 X-42.225 Y-13.000 Z-2.500 F100.000
G2 X-39.547 Y-9.864 Z-2.500 I3.175 J0.000 F100.000
G2 X-37.725 Y-9.825 Z-2.500 I1.159 J-11.554 F100.000
G1 X-37.725 Y9.825 Z-2.500 F100.000
G1 X-39.050 Y9.825 Z-2.500 F100.000
G2 X-42.225 Y13.000 Z-2.500 I0.000 J3.175 F100.000
G1 X-42.225 Y22.000 Z-2.500 F100.000
G2 X-39.050 Y25.175 Z-2.500 I3.175 J-0.000 F100.000
G1 X31.450 Y25.175 Z-2.500 F100.000
G2 X33.695 Y24.245 Z-2.500 I-0.000 J-3.175 F100.000
G1 X33.695 Y24.245 Z-5.000 F100.000
G2 X34.625 Y22.000 Z-5.000 I-2.245 J-2.245 F100.000
G1 X34.625 Y-22.000 Z-5.000 F100.000
G2 X31.450 Y-25.175 Z-5.000 I-3.175 J0.000 F100.000
G1 X-39.050 Y-25.175 Z-5.000 F100.000
G2 X-42.225 Y-22.000 Z-5.000 I0.000 J3.175 F100.000
G1 X-42.225 Y-13.000 Z-5.000 F100.000
G2 X-39.547 Y-9.864 Z-5.000 I3.175 J0.000 F100.000
G2 X-37.725 Y-9.825 Z-5.000 I1.159 J-11.554 F100.000
G1 X-37.725 Y9.825 Z-5.000 F100.000
G1 X-39.050 Y9.825 Z-5.000 F100.000
G2 X-42.225 Y13.000 Z-5.000 I0.000 J3.175 F100.000
G1 X-42.225 Y22.000 Z-5.000 F100.000
G2 X-39.050 Y25.175 Z-5.000 I3.175 J-0.000 F100.000
G1 X31.450 Y25.175 Z-5.000 F100.000
G2 X33.695 Y24.245 Z-5.000 I-0.000 J-3.175 F100.000
G1 X33.695 Y24.245 Z-7.500 F100.000
G2 X34.625 Y22.000 Z-7.500 I-2.245 J-2.245 F100.000
G1 X34.625 Y-22.000 Z-7.500 F100.000
G2 X31.450 Y-25.175 Z-7.500 I-3.175 J0.000 F100.000
G1 X-39.050 Y-25.175 Z-7.500 F100.000
G2 X-42.225 Y-22.000 Z-7.500 I0.000 J3.175 F100.000
G1 X-42.225 Y-13.000 Z-7.500 F100.000
G2 X-39.547 Y-9.864 Z-7.500 I3.175 J0.000 F100.000
G2 X-37.725 Y-9.825 Z-7.500 I1.159 J-11.554 F100.000
G1 X-37.725 Y9.825 Z-7.500 F100.000
G1 X-39.050 Y9.825 Z-7.500 F100.000
G2 X-42.225 Y13.000 Z-7.500 I0.000 J3.175 F100.000
G1 X-42.225 Y22.000 Z-7.500 F100.000
G2 X-39.050 Y25.175 Z-7.500 I3.175 J-0.000 F100.000
G1 X31.450 Y25.175 Z-7.500 F100.000
G2 X33.695 Y24.245 Z-7.500 I-0.000 J-3.175 F100.000
G1 X33.695 Y24.245 Z-9.525 F100.000
G2 X34.625 Y22.000 Z-9.525 I-2.245 J-2.245 F100.000
G1 X34.625 Y-22.000 Z-9.525 F100.000
G2 X31.450 Y-25.175 Z-9.525 I-3.175 J0.000 F100.000
G1 X-39.050 Y-25.175 Z-9.525 F100.000
G2 X-42.225 Y-22.000 Z-9.525 I0.000 J3.175 F100.000
G1 X-42.225 Y-13.000 Z-9.525 F100.000
G2 X-39.547 Y-9.864 Z-9.525 I3.175 J0.000 F100.000
G2 X-37.725 Y-9.825 Z-9.525 I1.159 J-11.554 F100.000
G1 X-37.725 Y9.825 Z-9.525 F100.000
G1 X-39.050 Y9.825 Z-9.525 F100.000
G2 X-42.225 Y13.000 Z-9.525 I0.000 J3.175 F100.000
G1 X-42.225 Y22.000 Z-9.525 F100.000
G2 X-39.050 Y25.175 Z-9.525 I3.175 J-0.000 F100.000
G1 X31.450 Y25.175 Z-9.525 F100.000
G2 X33.695 Y24.245 Z-9.525 I-0.000 J-3.175 F100.000
G0 Z5.000
(finish operation: Contour)
(begin operation: T1: 1/4 inch 4 flute endmill001)
(machine: not set, mm/min)
(T1: 1/4 inch 4 flute endmill001)
M6 T1
M3 S300
(finish operation: T1: 1/4 inch 4 flute endmill001)
(begin operation: Pocket_Shape001)
(machine: not set, mm/min)
(Pocket_Shape001)
G0 Z5.000
G0 X25.775 Y16.325
G0 Z3.000
G1 X25.775 Y16.325 Z-2.500 F100.000
G1 X19.868 Y16.325 Z-2.500 F100.000
G2 X6.032 Y16.325 Z-2.500 I-6.918 J2.219 F100.000
G1 X-6.032 Y16.325 Z-2.500 F100.000
G2 X-19.868 Y16.325 Z-2.500 I-6.918 J2.219 F100.000
G1 X-33.375 Y16.325 Z-2.500 F100.000
G1 X-33.375 Y15.939 Z-2.500 F100.000
G2 X-31.375 Y13.000 Z-2.500 I-1.146 J-2.930 F100.000
G1 X-31.375 Y-13.000 Z-2.500 F100.000
G2 X-33.375 Y-15.939 Z-2.500 I-3.146 J-0.009 F100.000
G1 X-33.375 Y-16.325 Z-2.500 F100.000
G1 X-19.870 Y-16.325 Z-2.500 F100.000
G2 X-6.030 Y-16.325 Z-2.500 I6.920 J-2.222 F100.000
G1 X6.030 Y-16.325 Z-2.500 F100.000
G2 X19.870 Y-16.325 Z-2.500 I6.920 J-2.222 F100.000
G1 X25.775 Y-16.325 Z-2.500 F100.000
G1 X25.775 Y-10.000 Z-2.500 F100.000
G2 X26.275 Y-8.307 Z-2.500 I3.046 J0.020 F100.000
G1 X26.275 Y8.307 Z-2.500 F100.000
G2 X25.775 Y10.000 Z-2.500 I2.546 J1.672 F100.000
G1 X25.775 Y16.325 Z-2.500 F100.000
G0 X25.775 Y16.325 Z5.000
G0 X21.026 Y9.634 Z5.000
G0 X21.026 Y9.634 Z0.500
G1 X21.026 Y9.634 Z-2.500 F100.000
G2 X3.160 Y11.563 Z-2.500 I-8.075 J8.908 F100.000
G1 X-3.160 Y11.563 Z-2.500 F100.000
G2 X-22.740 Y11.563 Z-2.500 I-9.790 J6.978 F100.000
G1 X-26.613 Y11.563 Z-2.500 F100.000
G1 X-26.613 Y-11.563 Z-2.500 F100.000
G1 X-22.740 Y-11.563 Z-2.500 F100.000
G2 X-3.160 Y-11.563 Z-2.500 I9.790 J-6.980 F100.000
G1 X3.160 Y-11.563 Z-2.500 F100.000
G2 X21.030 Y-9.651 Z-2.500 I9.783 J-6.967 F100.000
G2 X21.513 Y-7.256 Z-2.500 I7.193 J-0.203 F100.000
G1 X21.513 Y7.245 Z-2.500 F100.000
G2 X21.026 Y9.634 Z-2.500 I6.987 J2.666 F100.000
G0 X21.026 Y9.634 Z5.000
G0 X16.750 Y2.193 Z5.000
G0 X16.750 Y2.193 Z0.500
G1 X16.750 Y2.193 Z-2.500 F100.000
G2 X0.944 Y6.800 Z-2.500 I-3.800 J16.380 F100.000
G1 X-0.955 Y6.800 Z-2.500 F100.000
G2 X-21.850 Y4.310 Z-2.500 I-11.992 J11.714 F100.000
G1 X-21.850 Y-4.311 Z-2.500 F100.000
G2 X-0.954 Y-6.800 Z-2.500 I8.901 J-14.234 F100.000
G1 X0.956 Y-6.800 Z-2.500 F100.000
G2 X16.750 Y-2.192 Z-2.500 I11.996 J-11.744 F100.000
G1 X16.750 Y2.193 Z-2.500 F100.000
G0 X16.750 Y2.193 Z5.000
G0 X1.971 Y-0.002 Z5.000
G0 X1.971 Y-0.002 Z0.500
G1 X1.971 Y-0.002 Z-2.500 F100.000
G2 X0.002 Y1.317 Z-2.500 I11.278 J18.971 F100.000
G2 X-1.972 Y-0.000 Z-2.500 I-13.208 J17.655 F100.000
G2 X-0.000 Y-1.325 Z-2.500 I-7.392 J-13.136 F100.000
G2 X1.971 Y-0.002 Z-2.500 I12.369 J-16.292 F100.000
G1 X1.971 Y-0.002 Z-5.000 F100.000
G2 X0.002 Y1.317 Z-5.000 I11.278 J18.971 F100.000
G2 X-1.972 Y-0.000 Z-5.000 I-13.208 J17.655 F100.000
G2 X-0.000 Y-1.325 Z-5.000 I-7.392 J-13.136 F100.000
G2 X1.971 Y-0.002 Z-5.000 I12.369 J-16.292 F100.000
G0 X1.971 Y-0.002 Z5.000
G0 X4.393 Y4.098 Z5.000
G0 X4.393 Y4.098 Z-2.000
G1 X4.393 Y4.098 Z-5.000 F100.000
G2 X0.944 Y6.800 Z-5.000 I8.556 J14.476 F100.000
G1 X-0.955 Y6.800 Z-5.000 F100.000
G2 X-21.850 Y4.310 Z-5.000 I-11.992 J11.714 F100.000
G1 X-21.850 Y-4.311 Z-5.000 F100.000
G2 X-0.954 Y-6.800 Z-5.000 I8.901 J-14.234 F100.000
G1 X0.956 Y-6.800 Z-5.000 F100.000
G2 X16.750 Y-2.192 Z-5.000 I11.996 J-11.744 F100.000
G1 X16.750 Y2.193 Z-5.000 F100.000
G2 X4.393 Y4.098 Z-5.000 I-3.800 J16.380 F100.000
G0 X4.393 Y4.098 Z5.000
G0 X6.822 Y8.197 Z5.000
G0 X6.822 Y8.197 Z-2.000
G1 X6.822 Y8.197 Z-5.000 F100.000
G2 X3.160 Y11.563 Z-5.000 I6.129 J10.345 F100.000
G1 X-3.160 Y11.563 Z-5.000 F100.000
G2 X-22.740 Y11.563 Z-5.000 I-9.790 J6.978 F100.000
G1 X-26.613 Y11.563 Z-5.000 F100.000
G1 X-26.613 Y-11.563 Z-5.000 F100.000
G1 X-22.740 Y-11.563 Z-5.000 F100.000
G2 X-3.160 Y-11.563 Z-5.000 I9.790 J-6.980 F100.000
G1 X3.160 Y-11.563 Z-5.000 F100.000
G2 X21.030 Y-9.651 Z-5.000 I9.783 J-6.967 F100.000
G2 X21.513 Y-7.256 Z-5.000 I7.193 J-0.203 F100.000
G1 X21.513 Y7.245 Z-5.000 F100.000
G2 X21.026 Y9.634 Z-5.000 I6.987 J2.666 F100.000
G2 X6.822 Y8.197 Z-5.000 I-8.075 J8.908 F100.000
G0 X6.822 Y8.197 Z5.000
G0 X9.248 Y12.293 Z5.000
G0 X9.248 Y12.293 Z-2.000
G1 X9.248 Y12.293 Z-5.000 F100.000
G2 X6.032 Y16.325 Z-5.000 I3.702 J6.251 F100.000
G1 X-6.032 Y16.325 Z-5.000 F100.000
G2 X-19.868 Y16.325 Z-5.000 I-6.918 J2.219 F100.000
G1 X-33.375 Y16.325 Z-5.000 F100.000
G1 X-33.375 Y15.939 Z-5.000 F100.000
G2 X-31.375 Y13.000 Z-5.000 I-1.146 J-2.930 F100.000
G1 X-31.375 Y-13.000 Z-5.000 F100.000
G2 X-33.375 Y-15.939 Z-5.000 I-3.146 J-0.009 F100.000
G1 X-33.375 Y-16.325 Z-5.000 F100.000
G1 X-19.870 Y-16.325 Z-5.000 F100.000
G2 X-6.030 Y-16.325 Z-5.000 I6.920 J-2.222 F100.000
G1 X6.030 Y-16.325 Z-5.000 F100.000
G2 X19.870 Y-16.325 Z-5.000 I6.920 J-2.222 F100.000
G1 X25.775 Y-16.325 Z-5.000 F100.000
G1 X25.775 Y-10.000 Z-5.000 F100.000
G2 X26.275 Y-8.307 Z-5.000 I3.046 J0.020 F100.000
G1 X26.275 Y8.307 Z-5.000 F100.000
G2 X25.775 Y10.000 Z-5.000 I2.546 J1.672 F100.000
G1 X25.775 Y16.325 Z-5.000 F100.000
G1 X19.868 Y16.325 Z-5.000 F100.000
G2 X9.248 Y12.293 Z-5.000 I-6.918 J2.219 F100.000
G1 X9.248 Y12.293 Z-7.500 F100.000
G2 X6.032 Y16.325 Z-7.500 I3.702 J6.251 F100.000
G1 X-6.032 Y16.325 Z-7.500 F100.000
G2 X-19.868 Y16.325 Z-7.500 I-6.918 J2.219 F100.000
G1 X-33.375 Y16.325 Z-7.500 F100.000
G1 X-33.375 Y15.939 Z-7.500 F100.000
G2 X-31.375 Y13.000 Z-7.500 I-1.146 J-2.930 F100.000
G1 X-31.375 Y-13.000 Z-7.500 F100.000
G2 X-33.375 Y-15.939 Z-7.500 I-3.146 J-0.009 F100.000
G1 X-33.375 Y-16.325 Z-7.500 F100.000
G1 X-19.870 Y-16.325 Z-7.500 F100.000
G2 X-6.030 Y-16.325 Z-7.500 I6.920 J-2.222 F100.000
G1 X6.030 Y-16.325 Z-7.500 F100.000
G2 X19.870 Y-16.325 Z-7.500 I6.920 J-2.222 F100.000
G1 X25.775 Y-16.325 Z-7.500 F100.000
G1 X25.775 Y-10.000 Z-7.500 F100.000
G2 X26.275 Y-8.307 Z-7.500 I3.046 J0.020 F100.000
G1 X26.275 Y8.307 Z-7.500 F100.000
G2 X25.775 Y10.000 Z-7.500 I2.546 J1.672 F100.000
G1 X25.775 Y16.325 Z-7.500 F100.000
G1 X19.868 Y16.325 Z-7.500 F100.000
G2 X9.248 Y12.293 Z-7.500 I-6.918 J2.219 F100.000
G0 X9.248 Y12.293 Z5.000
G0 X6.821 Y8.198 Z5.000
G0 X6.821 Y8.198 Z-4.500
G1 X6.821 Y8.198 Z-7.500 F100.000
G2 X3.160 Y11.563 Z-7.500 I6.130 J10.344 F100.000
G1 X-3.160 Y11.563 Z-7.500 F100.000
G2 X-22.740 Y11.563 Z-7.500 I-9.790 J6.978 F100.000
G1 X-26.613 Y11.563 Z-7.500 F100.000
G1 X-26.613 Y-11.563 Z-7.500 F100.000
G1 X-22.740 Y-11.563 Z-7.500 F100.000
G2 X-3.160 Y-11.563 Z-7.500 I9.790 J-6.980 F100.000
G1 X3.160 Y-11.563 Z-7.500 F100.000
G2 X21.030 Y-9.651 Z-7.500 I9.783 J-6.967 F100.000
G2 X21.513 Y-7.256 Z-7.500 I7.193 J-0.203 F100.000
G1 X21.513 Y7.245 Z-7.500 F100.000
G2 X21.026 Y9.634 Z-7.500 I6.987 J2.666 F100.000
G2 X6.821 Y8.198 Z-7.500 I-8.075 J8.908 F100.000
G0 X6.821 Y8.198 Z5.000
G0 X4.398 Y4.095 Z5.000
G0 X4.398 Y4.095 Z-4.500
G1 X4.398 Y4.095 Z-7.500 F100.000
G2 X0.944 Y6.800 Z-7.500 I8.552 J14.478 F100.000
G1 X-0.955 Y6.800 Z-7.500 F100.000
G2 X-21.850 Y4.310 Z-7.500 I-11.992 J11.714 F100.000
G1 X-21.850 Y-4.311 Z-7.500 F100.000
G2 X-0.954 Y-6.800 Z-7.500 I8.901 J-14.234 F100.000
G1 X0.956 Y-6.800 Z-7.500 F100.000
G2 X16.750 Y-2.192 Z-7.500 I11.996 J-11.744 F100.000
G1 X16.750 Y2.193 Z-7.500 F100.000
G2 X4.398 Y4.095 Z-7.500 I-3.800 J16.380 F100.000
G0 X4.398 Y4.095 Z5.000
G0 X1.971 Y-0.002 Z5.000
G0 X1.971 Y-0.002 Z-4.500
G1 X1.971 Y-0.002 Z-7.500 F100.000
G2 X0.002 Y1.317 Z-7.500 I11.278 J18.971 F100.000
G2 X-1.972 Y-0.000 Z-7.500 I-13.208 J17.655 F100.000
G2 X-0.000 Y-1.325 Z-7.500 I-7.392 J-13.136 F100.000
G2 X1.971 Y-0.002 Z-7.500 I12.369 J-16.292 F100.000
G1 X1.971 Y-0.002 Z-8.025 F100.000
G2 X0.002 Y1.317 Z-8.025 I11.278 J18.971 F100.000
G2 X-1.972 Y-0.000 Z-8.025 I-13.208 J17.655 F100.000
G2 X-0.000 Y-1.325 Z-8.025 I-7.392 J-13.136 F100.000
G2 X1.971 Y-0.002 Z-8.025 I12.369 J-16.292 F100.000
G0 X1.971 Y-0.002 Z5.000
G0 X4.393 Y4.098 Z5.000
G0 X4.393 Y4.098 Z-5.025
G1 X4.393 Y4.098 Z-8.025 F100.000
G2 X0.944 Y6.800 Z-8.025 I8.556 J14.476 F100.000
G1 X-0.955 Y6.800 Z-8.025 F100.000
G2 X-21.850 Y4.310 Z-8.025 I-11.992 J11.714 F100.000
G1 X-21.850 Y-4.311 Z-8.025 F100.000
G2 X-0.954 Y-6.800 Z-8.025 I8.901 J-14.234 F100.000
G1 X0.956 Y-6.800 Z-8.025 F100.000
G2 X16.750 Y-2.192 Z-8.025 I11.996 J-11.744 F100.000
G1 X16.750 Y2.193 Z-8.025 F100.000
G2 X4.393 Y4.098 Z-8.025 I-3.800 J16.380 F100.000
G0 X4.393 Y4.098 Z5.000
G0 X6.822 Y8.197 Z5.000
G0 X6.822 Y8.197 Z-5.025
G1 X6.822 Y8.197 Z-8.025 F100.000
G2 X3.160 Y11.563 Z-8.025 I6.129 J10.345 F100.000
G1 X-3.160 Y11.563 Z-8.025 F100.000
G2 X-22.740 Y11.563 Z-8.025 I-9.790 J6.978 F100.000
G1 X-26.613 Y11.563 Z-8.025 F100.000
G1 X-26.613 Y-11.563 Z-8.025 F100.000
G1 X-22.740 Y-11.563 Z-8.025 F100.000
G2 X-3.160 Y-11.563 Z-8.025 I9.790 J-6.980 F100.000
G1 X3.160 Y-11.563 Z-8.025 F100.000
G2 X21.030 Y-9.651 Z-8.025 I9.783 J-6.967 F100.000
G2 X21.513 Y-7.256 Z-8.025 I7.193 J-0.203 F100.000
G1 X21.513 Y7.245 Z-8.025 F100.000
G2 X21.026 Y9.634 Z-8.025 I6.987 J2.666 F100.000
G2 X6.822 Y8.197 Z-8.025 I-8.075 J8.908 F100.000
G0 X6.822 Y8.197 Z5.000
G0 X9.248 Y12.293 Z5.000
G0 X9.248 Y12.293 Z-5.025
G1 X9.248 Y12.293 Z-8.025 F100.000
G2 X6.032 Y16.325 Z-8.025 I3.702 J6.251 F100.000
G1 X-6.032 Y16.325 Z-8.025 F100.000
G2 X-19.868 Y16.325 Z-8.025 I-6.918 J2.219 F100.000
G1 X-33.375 Y16.325 Z-8.025 F100.000
G1 X-33.375 Y15.939 Z-8.025 F100.000
G2 X-31.375 Y13.000 Z-8.025 I-1.146 J-2.930 F100.000
G1 X-31.375 Y-13.000 Z-8.025 F100.000
G2 X-33.375 Y-15.939 Z-8.025 I-3.146 J-0.009 F100.000
G1 X-33.375 Y-16.325 Z-8.025 F100.000
G1 X-19.870 Y-16.325 Z-8.025 F100.000
G2 X-6.030 Y-16.325 Z-8.025 I6.920 J-2.222 F100.000
G1 X6.030 Y-16.325 Z-8.025 F100.000
G2 X19.870 Y-16.325 Z-8.025 I6.920 J-2.222 F100.000
G1 X25.775 Y-16.325 Z-8.025 F100.000
G1 X25.775 Y-10.000 Z-8.025 F100.000
G2 X26.275 Y-8.307 Z-8.025 I3.046 J0.020 F100.000
G1 X26.275 Y8.307 Z-8.025 F100.000
G2 X25.775 Y10.000 Z-8.025 I2.546 J1.672 F100.000
G1 X25.775 Y16.325 Z-8.025 F100.000
G1 X19.868 Y16.325 Z-8.025 F100.000
G2 X9.248 Y12.293 Z-8.025 I-6.918 J2.219 F100.000
G0 Z5.000
(finish operation: Pocket_Shape001)
(begin postamble)
M05
G17 G54 G90 G80 G40
M2
