(Exported by FreeCAD)
(Post Processor: linuxcnc_post)
(Output Time:2019-03-24 10:37:25.353000)
(begin preamble)
G17 G54 G40 G49 G80 G90
G21
(begin operation: Clearout)
(machine: not set, mm/min)
(Pocket_Shape)
G0 Z17.700
G0 X34.625 Y16.550
G0 Z15.700
G1 X34.625 Y16.550 Z10.200 F100.000
G1 X28.275 Y16.550 Z10.200 F100.000
G1 X28.275 Y-16.550 Z10.200 F100.000
G1 X34.625 Y-16.550 Z10.200 F100.000
G1 X34.625 Y16.550 Z10.200 F100.000
G1 X34.625 Y16.550 Z7.700 F100.000
G1 X28.275 Y16.550 Z7.700 F100.000
G1 X28.275 Y-16.550 Z7.700 F100.000
G1 X34.625 Y-16.550 Z7.700 F100.000
G1 X34.625 Y16.550 Z7.700 F100.000
G1 X34.625 Y16.550 Z5.200 F100.000
G1 X28.275 Y16.550 Z5.200 F100.000
G1 X28.275 Y-16.550 Z5.200 F100.000
G1 X34.625 Y-16.550 Z5.200 F100.000
G1 X34.625 Y16.550 Z5.200 F100.000
G1 X34.625 Y16.550 Z2.700 F100.000
G1 X28.275 Y16.550 Z2.700 F100.000
G1 X28.275 Y-16.550 Z2.700 F100.000
G1 X34.625 Y-16.550 Z2.700 F100.000
G1 X34.625 Y16.550 Z2.700 F100.000
G1 X34.625 Y16.550 Z1.500 F100.000
G1 X28.275 Y16.550 Z1.500 F100.000
G1 X28.275 Y-16.550 Z1.500 F100.000
G1 X34.625 Y-16.550 Z1.500 F100.000
G1 X34.625 Y16.550 Z1.500 F100.000
G0 Z17.700
(finish operation: Clearout)
(begin operation: T1: 1/4 inch 4 flute endmill001)
(machine: not set, mm/min)
(T1: 1/4 inch 4 flute endmill001)
M6 T1
M3 S0
(finish operation: T1: 1/4 inch 4 flute endmill001)
(begin operation: Contour)
(machine: not set, mm/min)
(Contour)
(Compensated Tool Path. Diameter: 6.35)
G0 Z18.700
G0 X33.695 Y24.470
G0 Z16.700
G1 X33.695 Y24.470 Z11.200
G2 X34.625 Y22.225 Z11.200 I-2.245 J-2.245
G1 X34.625 Y-22.225 Z11.200
G2 X31.450 Y-25.400 Z11.200 I-3.175 J0.000
G1 X-39.050 Y-25.400 Z11.200
G2 X-42.225 Y-22.225 Z11.200 I0.000 J3.175
G1 X-42.225 Y22.225 Z11.200
G2 X-39.050 Y25.400 Z11.200 I3.175 J-0.000
G1 X31.450 Y25.400 Z11.200
G2 X33.695 Y24.470 Z11.200 I-0.000 J-3.175
G1 X33.695 Y24.470 Z8.700
G2 X34.625 Y22.225 Z8.700 I-2.245 J-2.245
G1 X34.625 Y-22.225 Z8.700
G2 X31.450 Y-25.400 Z8.700 I-3.175 J0.000
G1 X-39.050 Y-25.400 Z8.700
G2 X-42.225 Y-22.225 Z8.700 I0.000 J3.175
G1 X-42.225 Y22.225 Z8.700
G2 X-39.050 Y25.400 Z8.700 I3.175 J-0.000
G1 X31.450 Y25.400 Z8.700
G2 X33.695 Y24.470 Z8.700 I-0.000 J-3.175
G1 X33.695 Y24.470 Z6.200
G2 X34.625 Y22.225 Z6.200 I-2.245 J-2.245
G1 X34.625 Y-22.225 Z6.200
G2 X31.450 Y-25.400 Z6.200 I-3.175 J0.000
G1 X-39.050 Y-25.400 Z6.200
G2 X-42.225 Y-22.225 Z6.200 I0.000 J3.175
G1 X-42.225 Y22.225 Z6.200
G2 X-39.050 Y25.400 Z6.200 I3.175 J-0.000
G1 X31.450 Y25.400 Z6.200
G2 X33.695 Y24.470 Z6.200 I-0.000 J-3.175
G1 X33.695 Y24.470 Z3.700
G2 X34.625 Y22.225 Z3.700 I-2.245 J-2.245
G1 X34.625 Y-22.225 Z3.700
G2 X31.450 Y-25.400 Z3.700 I-3.175 J0.000
G1 X-39.050 Y-25.400 Z3.700
G2 X-42.225 Y-22.225 Z3.700 I0.000 J3.175
G1 X-42.225 Y22.225 Z3.700
G2 X-39.050 Y25.400 Z3.700 I3.175 J-0.000
G1 X31.450 Y25.400 Z3.700
G2 X33.695 Y24.470 Z3.700 I-0.000 J-3.175
G1 X33.695 Y24.470 Z1.200
G2 X34.625 Y22.225 Z1.200 I-2.245 J-2.245
G1 X34.625 Y-22.225 Z1.200
G2 X31.450 Y-25.400 Z1.200 I-3.175 J0.000
G1 X-39.050 Y-25.400 Z1.200
G2 X-42.225 Y-22.225 Z1.200 I0.000 J3.175
G1 X-42.225 Y22.225 Z1.200
G2 X-39.050 Y25.400 Z1.200 I3.175 J-0.000
G1 X31.450 Y25.400 Z1.200
G2 X33.695 Y24.470 Z1.200 I-0.000 J-3.175
G1 X33.695 Y24.470 Z-1.000
G2 X34.625 Y22.225 Z-1.000 I-2.245 J-2.245
G1 X34.625 Y-22.225 Z-1.000
G2 X31.450 Y-25.400 Z-1.000 I-3.175 J0.000
G1 X-39.050 Y-25.400 Z-1.000
G2 X-42.225 Y-22.225 Z-1.000 I0.000 J3.175
G1 X-42.225 Y22.225 Z-1.000
G2 X-39.050 Y25.400 Z-1.000 I3.175 J-0.000
G1 X31.450 Y25.400 Z-1.000
G2 X33.695 Y24.470 Z-1.000 I-0.000 J-3.175
G0 Z18.700
(finish operation: Contour)
(begin operation: T1: 1/4 inch 4 flute endmill001)
(machine: not set, mm/min)
(T1: 1/4 inch 4 flute endmill001)
M6 T1
M3 S0
(finish operation: T1: 1/4 inch 4 flute endmill001)
(begin operation: Pocket_Shape001)
(machine: not set, mm/min)
(Pocket_Shape001)
G0 Z18.700
G0 X28.275 Y16.550
G0 Z16.700
G1 X28.275 Y16.550 Z11.200
G1 X19.937 Y16.550 Z11.200
G2 X5.963 Y16.550 Z11.200 I-6.987 J1.996
G1 X-5.963 Y16.550 Z11.200
G2 X-19.937 Y16.550 Z11.200 I-6.987 J1.996
G1 X-33.375 Y16.550 Z11.200
G1 X-33.375 Y-16.550 Z11.200
G1 X-19.937 Y-16.550 Z11.200
G2 X-5.963 Y-16.550 Z11.200 I6.987 J-1.996
G1 X5.963 Y-16.550 Z11.200
G2 X19.937 Y-16.550 Z11.200 I6.987 J-1.996
G1 X28.275 Y-16.550 Z11.200
G1 X28.275 Y16.550 Z11.200
G0 X28.275 Y16.550 Z18.700
G0 X24.465 Y12.740 Z18.700
G1 X24.465 Y12.740 Z11.200
G1 X22.372 Y12.740 Z11.200
G2 X3.528 Y12.740 Z11.200 I-9.422 J5.789
G1 X-3.528 Y12.740 Z11.200
G2 X-22.372 Y12.740 Z11.200 I-9.422 J5.789
G1 X-29.565 Y12.740 Z11.200
G1 X-29.565 Y-12.740 Z11.200
G1 X-22.372 Y-12.740 Z11.200
G2 X-3.528 Y-12.740 Z11.200 I9.422 J-5.789
G1 X3.528 Y-12.740 Z11.200
G2 X22.372 Y-12.740 Z11.200 I9.422 J-5.789
G1 X24.465 Y-12.740 Z11.200
G1 X24.465 Y12.740 Z11.200
G0 X24.465 Y12.740 Z18.700
G0 X20.655 Y5.814 Z18.700
G1 X20.655 Y5.814 Z11.200
G2 X1.593 Y8.930 Z11.200 I-7.706 J12.722
G1 X-1.582 Y8.930 Z11.200
G2 X-24.307 Y8.930 Z11.200 I-11.362 J9.619
G1 X-25.755 Y8.930 Z11.200
G1 X-25.755 Y-8.930 Z11.200
G1 X-24.318 Y-8.930 Z11.200
G2 X-1.593 Y-8.930 Z11.200 I11.362 J-9.619
G1 X1.582 Y-8.930 Z11.200
G2 X20.655 Y-5.814 Z11.200 I11.363 J-9.623
G1 X20.655 Y5.814 Z11.200
G0 X20.655 Y5.814 Z18.700
G0 X16.845 Y0.261 Z18.700
G1 X16.845 Y0.261 Z11.200
G2 X15.287 Y0.000 Z11.200 I-3.860 J18.285
G2 X16.845 Y-0.255 Z11.200 I-0.817 J-9.864
G1 X16.845 Y0.261 Z11.200
G0 X16.845 Y0.261 Z18.700
G0 X10.613 Y0.000 Z18.700
G1 X10.613 Y0.000 Z11.200
G2 X-0.003 Y5.063 Z11.200 I2.277 J18.437
G2 X-10.613 Y0.000 Z11.200 I-12.938 J13.465
G2 X0.003 Y-5.063 Z11.200 I-2.277 J-18.437
G2 X10.613 Y0.000 Z11.200 I12.938 J-13.465
G0 X10.613 Y0.000 Z18.700
G0 X0.204 Y-0.002 Z18.700
G1 X0.204 Y-0.002 Z11.200
G2 X-0.002 Y0.134 Z11.200 I0.890 J1.574
G1 X-0.204 Y0.002 Z11.200
G2 X0.002 Y-0.134 Z11.200 I-0.890 J-1.574
G1 X0.204 Y-0.002 Z11.200
G0 X0.204 Y-0.002 Z18.700
G0 X-15.287 Y0.000 Z18.700
G1 X-15.287 Y0.000 Z11.200
G2 X-21.945 Y2.159 Z11.200 I2.191 J18.101
G1 X-21.945 Y-2.163 Z11.200
G2 X-15.287 Y0.000 Z11.200 I8.963 J-16.262
G1 X-15.287 Y0.000 Z8.700
G2 X-21.945 Y2.159 Z8.700 I2.191 J18.101
G1 X-21.945 Y-2.163 Z8.700
G2 X-15.287 Y0.000 Z8.700 I8.963 J-16.262
G0 X-15.287 Y0.000 Z18.700
G0 X-14.812 Y-3.778 Z18.700
G1 X-14.812 Y-3.778 Z8.700
G2 X-1.593 Y-8.930 Z8.700 I1.857 J-14.771
G1 X1.582 Y-8.930 Z8.700
G2 X20.655 Y-5.814 Z8.700 I11.363 J-9.623
G1 X20.655 Y5.814 Z8.700
G2 X1.593 Y8.930 Z8.700 I-7.706 J12.722
G1 X-1.582 Y8.930 Z8.700
G2 X-24.307 Y8.930 Z8.700 I-11.362 J9.619
G1 X-25.755 Y8.930 Z8.700
G1 X-25.755 Y-8.930 Z8.700
G1 X-24.318 Y-8.930 Z8.700
G2 X-14.812 Y-3.778 Z8.700 I11.362 J-9.619
G0 X-14.812 Y-3.778 Z18.700
G0 X-14.335 Y-7.558 Z18.700
G1 X-14.335 Y-7.558 Z8.700
G2 X-3.528 Y-12.740 Z8.700 I1.385 J-10.971
G1 X3.528 Y-12.740 Z8.700
G2 X22.372 Y-12.740 Z8.700 I9.422 J-5.789
G1 X24.465 Y-12.740 Z8.700
G1 X24.465 Y12.740 Z8.700
G1 X22.372 Y12.740 Z8.700
G2 X3.528 Y12.740 Z8.700 I-9.422 J5.789
G1 X-3.528 Y12.740 Z8.700
G2 X-22.372 Y12.740 Z8.700 I-9.422 J5.789
G1 X-29.565 Y12.740 Z8.700
G1 X-29.565 Y-12.740 Z8.700
G1 X-22.372 Y-12.740 Z8.700
G2 X-14.335 Y-7.558 Z8.700 I9.422 J-5.789
G0 X-14.335 Y-7.558 Z18.700
G0 X-13.859 Y-11.336 Z18.700
G1 X-13.859 Y-11.336 Z8.700
G2 X-5.963 Y-16.550 Z8.700 I0.909 J-7.209
G1 X5.963 Y-16.550 Z8.700
G2 X19.937 Y-16.550 Z8.700 I6.987 J-1.996
G1 X28.275 Y-16.550 Z8.700
G1 X28.275 Y16.550 Z8.700
G1 X19.937 Y16.550 Z8.700
G2 X5.963 Y16.550 Z8.700 I-6.987 J1.996
G1 X-5.963 Y16.550 Z8.700
G2 X-19.937 Y16.550 Z8.700 I-6.987 J1.996
G1 X-33.375 Y16.550 Z8.700
G1 X-33.375 Y-16.550 Z8.700
G1 X-19.937 Y-16.550 Z8.700
G2 X-13.859 Y-11.336 Z8.700 I6.987 J-1.996
G0 X-13.859 Y-11.336 Z18.700
G0 X-10.613 Y0.000 Z18.700
G1 X-10.613 Y0.000 Z8.700
G2 X0.003 Y-5.063 Z8.700 I-2.277 J-18.437
G2 X10.613 Y0.000 Z8.700 I12.938 J-13.465
G2 X-0.003 Y5.063 Z8.700 I2.277 J18.437
G2 X-10.613 Y0.000 Z8.700 I-12.938 J13.465
G0 X-10.613 Y0.000 Z18.700
G0 X-0.204 Y0.002 Z18.700
G1 X-0.204 Y0.002 Z8.700
G2 X0.002 Y-0.134 Z8.700 I-0.890 J-1.574
G1 X0.204 Y-0.002 Z8.700
G2 X-0.002 Y0.134 Z8.700 I0.890 J1.574
G1 X-0.204 Y0.002 Z8.700
G0 X-0.204 Y0.002 Z18.700
G0 X15.287 Y0.000 Z18.700
G1 X15.287 Y0.000 Z8.700
G2 X16.845 Y-0.255 Z8.700 I-0.817 J-9.864
G1 X16.845 Y0.261 Z8.700
G2 X15.287 Y0.000 Z8.700 I-3.860 J18.285
G1 X15.287 Y0.000 Z6.200
G2 X16.845 Y-0.255 Z6.200 I-0.817 J-9.864
G1 X16.845 Y0.261 Z6.200
G2 X15.287 Y0.000 Z6.200 I-3.860 J18.285
G0 X15.287 Y0.000 Z18.700
G0 X14.810 Y3.779 Z18.700
G1 X14.810 Y3.779 Z6.200
G2 X1.593 Y8.930 Z6.200 I-1.861 J14.757
G1 X-1.582 Y8.930 Z6.200
G2 X-24.307 Y8.930 Z6.200 I-11.362 J9.619
G1 X-25.755 Y8.930 Z6.200
G1 X-25.755 Y-8.930 Z6.200
G1 X-24.318 Y-8.930 Z6.200
G2 X-1.593 Y-8.930 Z6.200 I11.362 J-9.619
G1 X1.582 Y-8.930 Z6.200
G2 X20.655 Y-5.814 Z6.200 I11.363 J-9.623
G1 X20.655 Y5.814 Z6.200
G2 X14.810 Y3.779 Z6.200 I-7.706 J12.722
G0 X14.810 Y3.779 Z18.700
G0 X14.334 Y7.558 Z18.700
G1 X14.334 Y7.558 Z6.200
G2 X3.528 Y12.740 Z6.200 I-1.384 J10.971
G1 X-3.528 Y12.740 Z6.200
G2 X-22.372 Y12.740 Z6.200 I-9.422 J5.789
G1 X-29.565 Y12.740 Z6.200
G1 X-29.565 Y-12.740 Z6.200
G1 X-22.372 Y-12.740 Z6.200
G2 X-3.528 Y-12.740 Z6.200 I9.422 J-5.789
G1 X3.528 Y-12.740 Z6.200
G2 X22.372 Y-12.740 Z6.200 I9.422 J-5.789
G1 X24.465 Y-12.740 Z6.200
G1 X24.465 Y12.740 Z6.200
G1 X22.372 Y12.740 Z6.200
G2 X14.334 Y7.558 Z6.200 I-9.422 J5.789
G0 X14.334 Y7.558 Z18.700
G0 X13.858 Y11.336 Z18.700
G1 X13.858 Y11.336 Z6.200
G2 X5.963 Y16.550 Z6.200 I-0.908 J7.210
G1 X-5.963 Y16.550 Z6.200
G2 X-19.937 Y16.550 Z6.200 I-6.987 J1.996
G1 X-33.375 Y16.550 Z6.200
G1 X-33.375 Y-16.550 Z6.200
G1 X-19.937 Y-16.550 Z6.200
G2 X-5.963 Y-16.550 Z6.200 I6.987 J-1.996
G1 X5.963 Y-16.550 Z6.200
G2 X19.937 Y-16.550 Z6.200 I6.987 J-1.996
G1 X28.275 Y-16.550 Z6.200
G1 X28.275 Y16.550 Z6.200
G1 X19.937 Y16.550 Z6.200
G2 X13.858 Y11.336 Z6.200 I-6.987 J1.996
G0 X13.858 Y11.336 Z18.700
G0 X10.613 Y0.000 Z18.700
G1 X10.613 Y0.000 Z6.200
G2 X-0.003 Y5.063 Z6.200 I2.277 J18.437
G2 X-10.613 Y0.000 Z6.200 I-12.938 J13.465
G2 X0.003 Y-5.063 Z6.200 I-2.277 J-18.437
G2 X10.613 Y0.000 Z6.200 I12.938 J-13.465
G0 X10.613 Y0.000 Z18.700
G0 X0.204 Y-0.002 Z18.700
G1 X0.204 Y-0.002 Z6.200
G2 X-0.002 Y0.134 Z6.200 I0.890 J1.574
G1 X-0.204 Y0.002 Z6.200
G2 X0.002 Y-0.134 Z6.200 I-0.890 J-1.574
G1 X0.204 Y-0.002 Z6.200
G0 X0.204 Y-0.002 Z18.700
G0 X-15.287 Y0.000 Z18.700
G1 X-15.287 Y0.000 Z6.200
G2 X-21.945 Y2.159 Z6.200 I2.191 J18.101
G1 X-21.945 Y-2.163 Z6.200
G2 X-15.287 Y0.000 Z6.200 I8.963 J-16.262
G1 X-15.287 Y0.000 Z3.700
G2 X-21.945 Y2.159 Z3.700 I2.191 J18.101
G1 X-21.945 Y-2.163 Z3.700
G2 X-15.287 Y0.000 Z3.700 I8.963 J-16.262
G0 X-15.287 Y0.000 Z18.700
G0 X-14.812 Y-3.778 Z18.700
G1 X-14.812 Y-3.778 Z3.700
G2 X-1.593 Y-8.930 Z3.700 I1.857 J-14.771
G1 X1.582 Y-8.930 Z3.700
G2 X20.655 Y-5.814 Z3.700 I11.363 J-9.623
G1 X20.655 Y5.814 Z3.700
G2 X1.593 Y8.930 Z3.700 I-7.706 J12.722
G1 X-1.582 Y8.930 Z3.700
G2 X-24.307 Y8.930 Z3.700 I-11.362 J9.619
G1 X-25.755 Y8.930 Z3.700
G1 X-25.755 Y-8.930 Z3.700
G1 X-24.318 Y-8.930 Z3.700
G2 X-14.812 Y-3.778 Z3.700 I11.362 J-9.619
G0 X-14.812 Y-3.778 Z18.700
G0 X-14.335 Y-7.558 Z18.700
G1 X-14.335 Y-7.558 Z3.700
G2 X-3.528 Y-12.740 Z3.700 I1.385 J-10.971
G1 X3.528 Y-12.740 Z3.700
G2 X22.372 Y-12.740 Z3.700 I9.422 J-5.789
G1 X24.465 Y-12.740 Z3.700
G1 X24.465 Y12.740 Z3.700
G1 X22.372 Y12.740 Z3.700
G2 X3.528 Y12.740 Z3.700 I-9.422 J5.789
G1 X-3.528 Y12.740 Z3.700
G2 X-22.372 Y12.740 Z3.700 I-9.422 J5.789
G1 X-29.565 Y12.740 Z3.700
G1 X-29.565 Y-12.740 Z3.700
G1 X-22.372 Y-12.740 Z3.700
G2 X-14.335 Y-7.558 Z3.700 I9.422 J-5.789
G0 X-14.335 Y-7.558 Z18.700
G0 X-13.859 Y-11.336 Z18.700
G1 X-13.859 Y-11.336 Z3.700
G2 X-5.963 Y-16.550 Z3.700 I0.909 J-7.209
G1 X5.963 Y-16.550 Z3.700
G2 X19.937 Y-16.550 Z3.700 I6.987 J-1.996
G1 X28.275 Y-16.550 Z3.700
G1 X28.275 Y16.550 Z3.700
G1 X19.937 Y16.550 Z3.700
G2 X5.963 Y16.550 Z3.700 I-6.987 J1.996
G1 X-5.963 Y16.550 Z3.700
G2 X-19.937 Y16.550 Z3.700 I-6.987 J1.996
G1 X-33.375 Y16.550 Z3.700
G1 X-33.375 Y-16.550 Z3.700
G1 X-19.937 Y-16.550 Z3.700
G2 X-13.859 Y-11.336 Z3.700 I6.987 J-1.996
G0 X-13.859 Y-11.336 Z18.700
G0 X-10.613 Y0.000 Z18.700
G1 X-10.613 Y0.000 Z3.700
G2 X0.003 Y-5.063 Z3.700 I-2.277 J-18.437
G2 X10.613 Y0.000 Z3.700 I12.938 J-13.465
G2 X-0.003 Y5.063 Z3.700 I2.277 J18.437
G2 X-10.613 Y0.000 Z3.700 I-12.938 J13.465
G0 X-10.613 Y0.000 Z18.700
G0 X-0.204 Y0.002 Z18.700
G1 X-0.204 Y0.002 Z3.700
G2 X0.002 Y-0.134 Z3.700 I-0.890 J-1.574
G1 X0.204 Y-0.002 Z3.700
G2 X-0.002 Y0.134 Z3.700 I0.890 J1.574
G1 X-0.204 Y0.002 Z3.700
G0 X-0.204 Y0.002 Z18.700
G0 X15.287 Y0.000 Z18.700
G1 X15.287 Y0.000 Z3.700
G2 X16.845 Y-0.255 Z3.700 I-0.817 J-9.864
G1 X16.845 Y0.261 Z3.700
G2 X15.287 Y0.000 Z3.700 I-3.860 J18.285
G1 X15.287 Y0.000 Z1.500
G2 X16.845 Y-0.255 Z1.500 I-0.817 J-9.864
G1 X16.845 Y0.261 Z1.500
G2 X15.287 Y0.000 Z1.500 I-3.860 J18.285
G0 X15.287 Y0.000 Z18.700
G0 X14.810 Y3.779 Z18.700
G0 X14.810 Y3.779 Z18.200
G1 X14.810 Y3.779 Z1.500
G2 X1.593 Y8.930 Z1.500 I-1.861 J14.757
G1 X-1.582 Y8.930 Z1.500
G2 X-24.307 Y8.930 Z1.500 I-11.362 J9.619
G1 X-25.755 Y8.930 Z1.500
G1 X-25.755 Y-8.930 Z1.500
G1 X-24.318 Y-8.930 Z1.500
G2 X-1.593 Y-8.930 Z1.500 I11.362 J-9.619
G1 X1.582 Y-8.930 Z1.500
G2 X20.655 Y-5.814 Z1.500 I11.363 J-9.623
G1 X20.655 Y5.814 Z1.500
G2 X14.810 Y3.779 Z1.500 I-7.706 J12.722
G0 X14.810 Y3.779 Z18.700
G0 X14.334 Y7.558 Z18.700
G0 X14.334 Y7.558 Z18.200
G1 X14.334 Y7.558 Z1.500
G2 X3.528 Y12.740 Z1.500 I-1.384 J10.971
G1 X-3.528 Y12.740 Z1.500
G2 X-22.372 Y12.740 Z1.500 I-9.422 J5.789
G1 X-29.565 Y12.740 Z1.500
G1 X-29.565 Y-12.740 Z1.500
G1 X-22.372 Y-12.740 Z1.500
G2 X-3.528 Y-12.740 Z1.500 I9.422 J-5.789
G1 X3.528 Y-12.740 Z1.500
G2 X22.372 Y-12.740 Z1.500 I9.422 J-5.789
G1 X24.465 Y-12.740 Z1.500
G1 X24.465 Y12.740 Z1.500
G1 X22.372 Y12.740 Z1.500
G2 X14.334 Y7.558 Z1.500 I-9.422 J5.789
G0 X14.334 Y7.558 Z18.700
G0 X13.858 Y11.336 Z18.700
G0 X13.858 Y11.336 Z18.200
G1 X13.858 Y11.336 Z1.500
G2 X5.963 Y16.550 Z1.500 I-0.908 J7.210
G1 X-5.963 Y16.550 Z1.500
G2 X-19.937 Y16.550 Z1.500 I-6.987 J1.996
G1 X-33.375 Y16.550 Z1.500
G1 X-33.375 Y-16.550 Z1.500
G1 X-19.937 Y-16.550 Z1.500
G2 X-5.963 Y-16.550 Z1.500 I6.987 J-1.996
G1 X5.963 Y-16.550 Z1.500
G2 X19.937 Y-16.550 Z1.500 I6.987 J-1.996
G1 X28.275 Y-16.550 Z1.500
G1 X28.275 Y16.550 Z1.500
G1 X19.937 Y16.550 Z1.500
G2 X13.858 Y11.336 Z1.500 I-6.987 J1.996
G0 X13.858 Y11.336 Z18.700
G0 X10.613 Y0.000 Z18.700
G0 X10.613 Y0.000 Z18.200
G1 X10.613 Y0.000 Z1.500
G2 X-0.003 Y5.063 Z1.500 I2.277 J18.437
G2 X-10.613 Y0.000 Z1.500 I-12.938 J13.465
G2 X0.003 Y-5.063 Z1.500 I-2.277 J-18.437
G2 X10.613 Y0.000 Z1.500 I12.938 J-13.465
G0 X10.613 Y0.000 Z18.700
G0 X0.204 Y-0.002 Z18.700
G0 X0.204 Y-0.002 Z18.200
G1 X0.204 Y-0.002 Z1.500
G2 X-0.002 Y0.134 Z1.500 I0.890 J1.574
G1 X-0.204 Y0.002 Z1.500
G2 X0.002 Y-0.134 Z1.500 I-0.890 J-1.574
G1 X0.204 Y-0.002 Z1.500
G0 X0.204 Y-0.002 Z18.700
G0 X-15.287 Y0.000 Z18.700
G0 X-15.287 Y0.000 Z18.200
G1 X-15.287 Y0.000 Z1.500
G2 X-21.945 Y2.159 Z1.500 I2.191 J18.101
G1 X-21.945 Y-2.163 Z1.500
G2 X-15.287 Y0.000 Z1.500 I8.963 J-16.262
G0 Z18.700
(finish operation: Pocket_Shape001)
(begin postamble)
M05
G17 G54 G90 G80 G40
M2
